; GCode generated by CraftWare

G28 X0 Y0
G28 Z0

M104 S215 ;set head temp (no wait)
M190 S60 ;set bed temp (wait)
M109 S215 ;set head temp (wait)
; ------------------------------------
; Layer #0
; ------------------------------------
M106 S0 ;turn off fan
G21 ; mm
G90 ; abs
G92 E0 ;reset extr
G0 F1200 Z0.200
;segType:Skirt
G0 F4800 E-1.0000
G0 X109.277 Y140.754 F5400
G0 F4800 E0.0000
G1 X112.232 Y143.710 E0.1390 F2400
G1 X113.677 Y143.710 E0.1871
G1 X113.809 Y143.841 E0.1933
G1 X115.385 Y143.841 E0.2457
G1 X116.305 Y143.972 E0.2766
G1 X117.881 Y143.972 E0.3290
G1 X118.012 Y144.104 E0.3352
G1 X119.589 Y144.104 E0.3876
G1 X120.508 Y144.235 E0.4185
G1 X122.085 Y144.235 E0.4710
G1 X122.479 Y144.366 E0.4848
G1 X124.318 Y144.366 E0.5459
G1 X124.449 Y144.498 E0.5521
G1 X126.814 Y144.498 E0.6308
G1 X129.704 Y141.608 E0.7667
G1 X129.835 Y141.214 E0.7805
G1 X129.901 Y140.754 E0.7960
G1 X129.901 Y139.178 E0.8484
G1 X130.032 Y139.046 E0.8546
G1 X130.032 Y137.207 E0.9158
G1 X130.164 Y137.076 E0.9219
G1 X130.164 Y135.499 E0.9744
G1 X130.295 Y134.580 E1.0053
G1 X130.295 Y133.003 E1.0577
G1 X130.426 Y132.872 E1.0639
G1 X130.426 Y131.033 E1.1250
G1 X130.558 Y130.901 E1.1312
G1 X130.558 Y129.325 E1.1837
G1 X130.689 Y128.405 E1.2146
G1 X130.689 Y126.829 E1.2670
G1 X130.820 Y126.698 E1.2732
G1 X130.820 Y124.858 E1.3343
G1 X130.952 Y124.727 E1.3405
G1 X130.952 Y123.151 E1.3929
G1 X131.083 Y122.231 E1.4238
G1 X131.083 Y121.180 E1.4588
G1 X131.215 Y120.260 E1.4897
G1 X131.215 Y118.684 E1.5421
G1 X131.346 Y118.553 E1.5483
G1 X131.346 Y116.976 E1.6007
G1 X131.477 Y116.057 E1.6316
G1 X131.477 Y115.006 E1.6666
G1 X131.609 Y114.086 E1.6975
G1 X131.609 Y112.510 E1.7499
G1 X131.740 Y112.378 E1.7561
G1 X131.740 Y110.539 E1.8173
G1 X131.871 Y110.408 E1.8234
G1 X131.871 Y106.729 E1.9458
G1 X131.675 Y106.401 E1.9585
G1 X128.916 Y103.643 E2.0883
G1 X127.996 Y103.511 E2.1192
G1 X126.420 Y103.511 E2.1716
G1 X126.289 Y103.380 E2.1778
G1 X124.712 Y103.380 E2.2302
G1 X123.332 Y103.183 E2.2766
G1 X123.332 Y102.657 E2.2940
G1 X123.464 Y102.263 E2.3079
G1 X123.464 Y100.686 E2.3603
G1 X123.595 Y100.292 E2.3741
G1 X123.595 Y98.453 E2.4353
G1 X123.727 Y98.322 E2.4415
G1 X123.727 Y96.745 E2.4939
G1 X123.858 Y95.826 E2.5248
G1 X123.858 Y94.249 E2.5772
G1 X123.989 Y94.118 E2.5834
G1 X123.989 Y92.542 E2.6358
G1 X124.121 Y91.622 E2.6667
G1 X124.121 Y90.571 E2.7017
G1 X124.252 Y89.652 E2.7326
G1 X124.252 Y88.075 E2.7850
G1 X124.383 Y87.944 E2.7912
G1 X124.383 Y86.367 E2.8436
G1 X124.515 Y85.448 E2.8745
G1 X124.515 Y83.871 E2.9270
G1 X124.646 Y83.740 E2.9331
G1 X124.646 Y81.901 E2.9943
G1 X124.778 Y81.769 E3.0005
G1 X124.778 Y80.193 E3.0529
G1 X124.909 Y79.273 E3.0838
G1 X124.909 Y77.697 E3.1362
G1 X125.040 Y77.566 E3.1424
G1 X125.040 Y75.989 E3.1949
G1 X125.172 Y75.070 E3.2257
G1 X125.172 Y73.493 E3.2782
G1 X125.303 Y73.362 E3.2844
G1 X125.303 Y71.523 E3.3455
G1 X125.434 Y71.391 E3.3517
G1 X125.434 Y69.815 E3.4041
G1 X125.566 Y68.895 E3.4350
G1 X125.566 Y65.742 E3.5399
G1 X125.500 Y65.283 E3.5553
G1 X125.238 Y65.020 E3.5677
G1 X125.040 Y64.691 E3.5804
G1 X124.252 Y63.903 E3.6175
G1 X124.055 Y63.575 E3.6303
G1 X120.246 Y59.765 E3.8094
G1 X119.720 Y59.765 E3.8269
G1 X118.801 Y59.634 E3.8578
G1 X117.224 Y59.634 E3.9103
G1 X117.093 Y59.503 E3.9164
G1 X115.516 Y59.503 E3.9689
G1 X114.597 Y59.371 E3.9998
G1 X113.020 Y59.371 E4.0522
G1 X112.889 Y59.240 E4.0584
G1 X111.050 Y59.240 E4.1195
G1 X110.918 Y59.109 E4.1257
G1 X109.342 Y59.109 E4.1782
G1 X108.422 Y58.977 E4.2090
G1 X106.846 Y58.977 E4.2615
G1 X106.715 Y58.846 E4.2677
G1 X105.138 Y58.846 E4.3201
G1 X104.219 Y58.714 E4.3510
G1 X103.168 Y58.714 E4.3859
G1 X102.248 Y58.583 E4.4168
G1 X100.672 Y58.583 E4.4693
G1 X100.540 Y58.452 E4.4755
G1 X98.964 Y58.452 E4.5279
G1 X98.044 Y58.320 E4.5588
G1 X96.468 Y58.320 E4.6112
G1 X96.336 Y58.189 E4.6174
G1 X94.497 Y58.189 E4.6786
G1 X94.366 Y58.058 E4.6847
G1 X92.790 Y58.058 E4.7372
G1 X91.870 Y57.926 E4.7681
G1 X90.294 Y57.926 E4.8205
G1 X90.162 Y57.795 E4.8267
G1 X88.586 Y57.795 E4.8791
G1 X87.666 Y57.663 E4.9100
G1 X86.090 Y57.663 E4.9624
G1 X85.958 Y57.532 E4.9686
G1 X84.119 Y57.532 E5.0298
G1 X83.988 Y57.401 E5.0360
G1 X82.411 Y57.401 E5.0884
G1 X81.492 Y57.269 E5.1193
G1 X79.915 Y57.269 E5.1717
G1 X79.784 Y57.138 E5.1779
G1 X78.208 Y57.138 E5.2303
G1 X77.288 Y57.007 E5.2612
G1 X76.237 Y57.007 E5.2962
G1 X75.317 Y56.875 E5.3271
G1 X73.741 Y56.875 E5.3795
G1 X73.610 Y56.744 E5.3857
G1 X72.033 Y56.744 E5.4381
G1 X71.114 Y56.613 E5.4690
G1 X69.537 Y56.613 E5.5215
G1 X69.406 Y56.481 E5.5276
G1 X66.778 Y56.481 E5.6150
G1 X66.319 Y56.547 E5.6305
G1 X63.429 Y59.437 E5.7664
G1 X63.297 Y59.831 E5.7802
G1 X63.297 Y61.407 E5.8327
G1 X63.166 Y61.801 E5.8465
G1 X63.166 Y63.378 E5.8989
G1 X63.035 Y63.772 E5.9127
G1 X63.035 Y65.348 E5.9652
G1 X62.903 Y65.742 E5.9790
G1 X62.903 Y67.319 E6.0314
G1 X62.969 Y67.778 E6.0468
G1 X65.990 Y70.800 E6.1890
G1 X67.829 Y70.800 E6.2501
G1 X67.961 Y70.931 E6.2563
G1 X69.537 Y70.931 E6.3087
G1 X70.457 Y71.063 E6.3396
G1 X72.033 Y71.063 E6.3921
G1 X72.165 Y71.194 E6.3982
G1 X74.004 Y71.194 E6.4594
G1 X74.135 Y71.325 E6.4656
G1 X75.712 Y71.325 E6.5180
G1 X76.631 Y71.457 E6.5489
G1 X77.682 Y71.457 E6.5839
G1 X78.602 Y71.588 E6.6148
G1 X80.178 Y71.588 E6.6672
G1 X80.309 Y71.719 E6.6734
G1 X81.886 Y71.719 E6.7258
G1 X82.805 Y71.851 E6.7567
G1 X83.856 Y71.851 E6.7917
G1 X84.776 Y71.982 E6.8226
G1 X86.352 Y71.982 E6.8750
G1 X86.484 Y72.114 E6.8812
G1 X88.323 Y72.114 E6.9423
G1 X88.454 Y72.245 E6.9485
G1 X90.031 Y72.245 E7.0010
G1 X90.950 Y72.376 E7.0319
G1 X91.213 Y72.376 E7.0406
G1 X91.344 Y72.508 E7.0468
G1 X91.607 Y72.508 E7.0555
G1 X91.739 Y72.639 E7.0617
G1 X92.001 Y72.639 E7.0704
G1 X92.133 Y72.770 E7.0766
G1 X92.395 Y72.770 E7.0853
G1 X92.527 Y72.902 E7.0915
G1 X92.790 Y72.902 E7.1003
G1 X92.921 Y73.033 E7.1064
G1 X93.184 Y73.033 E7.1152
G1 X93.446 Y73.296 E7.1275
G1 X93.512 Y73.756 E7.1430
G1 X93.644 Y74.150 E7.1568
G1 X93.644 Y74.675 E7.1743
G1 X93.775 Y74.807 E7.1805
G1 X93.775 Y75.332 E7.1980
G1 X93.906 Y75.464 E7.2041
G1 X93.906 Y75.989 E7.2216
G1 X93.775 Y76.909 E7.2525
G1 X93.775 Y78.485 E7.3049
G1 X93.644 Y78.617 E7.3111
G1 X93.644 Y80.718 E7.3810
G1 X93.512 Y80.850 E7.3872
G1 X93.512 Y82.426 E7.4396
G1 X93.381 Y83.346 E7.4705
G1 X93.381 Y84.922 E7.5230
G1 X93.250 Y85.054 E7.5291
G1 X93.250 Y88.206 E7.6340
G1 X93.446 Y88.535 E7.6467
G1 X96.205 Y91.293 E7.7765
G1 X97.782 Y91.293 E7.8289
G1 X98.701 Y91.425 E7.8598
G1 X99.752 Y91.425 E7.8948
G1 X100.672 Y91.556 E7.9257
G1 X102.248 Y91.556 E7.9781
G1 X102.379 Y91.687 E7.9843
G1 X104.219 Y91.687 E8.0455
G1 X104.350 Y91.819 E8.0516
G1 X106.189 Y91.819 E8.1128
G1 X106.320 Y91.950 E8.1190
G1 X107.897 Y91.950 E8.1714
G1 X108.817 Y92.082 E8.2023
G1 X109.893 Y92.082 E8.2381
;segType:HShell
G0 F4800 E7.2381
G0 X110.137 Y69.511 F5400
G0 F4800 E8.2381
G1 X104.326 Y63.701 E8.5114 F2400
G0 X104.930 Y63.739 F5400
G1 X110.170 Y68.979 E8.7579 F2400
;segType:Perimeter
G0 X110.907 Y69.377 F5400
G1 X109.736 Y87.822 E9.3727 F1440
G1 X97.461 Y87.043 E9.7817
G1 X98.222 Y75.050 E10.1814
G1 X97.558 Y71.748 E10.2935
G1 X95.316 Y69.201 E10.4063
G1 X92.126 Y68.126 E10.5183
G1 X67.203 Y66.543 E11.3489
G1 X67.580 Y60.606 E11.5468
G1 X119.223 Y63.885 E13.2679
G1 X121.524 Y66.512 E13.3840
G1 X119.117 Y104.425 E14.6476
G1 X119.392 Y105.792 E14.6940
G1 X120.332 Y106.860 E14.7413
G1 X121.653 Y107.305 E14.7876
G1 X127.814 Y107.737 E14.9930
G1 X125.755 Y140.176 E16.0741
G1 X125.647 Y140.243 E16.0784
G1 X113.533 Y139.425 E16.4822
G1 X113.482 Y139.376 E16.4845
G1 X117.900 Y69.792 E18.8036
G1 X110.970 Y69.321 E19.0346
G0 X110.172 Y69.266 F5400
;segType:Loop
G0 X110.442 Y70.389
G1 X109.362 Y87.398 E19.6014 F2400
G1 X97.886 Y86.670 E19.9839
G1 X98.625 Y75.022 E20.3721
G1 X97.930 Y71.564 E20.4894
G1 X95.545 Y68.857 E20.6094
G1 X92.204 Y67.730 E20.7267
G1 X67.628 Y66.169 E21.5457
G1 X67.954 Y61.030 E21.7170
G1 X119.032 Y64.274 E23.4193
G1 X121.114 Y66.652 E23.5244
G1 X118.714 Y104.452 E24.7842
G1 X119.021 Y105.976 E24.8359
G1 X120.102 Y107.205 E24.8903
G1 X121.574 Y107.701 E24.9420
G1 X127.389 Y108.109 E25.1359
G1 X125.383 Y139.719 E26.1894
G1 X125.305 Y139.819 E26.1936
G1 X113.990 Y139.055 E26.5708
G1 X113.905 Y139.033 E26.5737
G1 X118.324 Y69.420 E28.8937
G1 X110.537 Y68.890 E29.1533
G1 X110.454 Y70.190 E29.1966
;segType:HShell
G0 X110.103 Y70.043 F5400
G1 X103.722 Y63.662 E29.4967 F2400
G0 X103.118 Y63.624 F5400
G1 X110.069 Y70.575 E29.8237 F2400
G0 X110.035 Y71.107 F5400
G1 X102.514 Y63.586 E30.1775 F2400
G0 X101.910 Y63.547 F5400
G1 X110.001 Y71.639 E30.5581 F2400
G0 X109.968 Y72.171 F5400
G1 X101.306 Y63.509 E30.9655 F2400
G0 X100.702 Y63.471 F5400
G1 X109.934 Y72.703 E31.3997 F2400
G0 X109.900 Y73.235 F5400
G1 X100.098 Y63.432 E31.8608 F2400
G0 X99.494 Y63.394 F5400
G1 X109.866 Y73.766 E32.3487 F2400
G0 X109.833 Y74.298 F5400
G1 X98.890 Y63.356 E32.8634 F2400
G0 X98.286 Y63.317 F5400
G1 X109.799 Y74.830 E33.4049 F2400
G0 X109.765 Y75.362 F5400
G1 X97.682 Y63.279 E33.9733 F2400
G0 X97.078 Y63.241 F5400
G1 X109.731 Y75.894 E34.5685 F2400
G0 X109.697 Y76.426 F5400
G1 X96.474 Y63.202 E35.1905 F2400
G0 X95.870 Y63.164 F5400
G1 X109.664 Y76.958 E35.8393 F2400
G0 X109.630 Y77.490 F5400
G1 X95.266 Y63.125 E36.5150 F2400
G0 X94.662 Y63.087 F5400
G1 X109.596 Y78.022 E37.2175 F2400
G0 X109.562 Y78.554 F5400
G1 X94.058 Y63.049 E37.9468 F2400
G0 X93.453 Y63.010 F5400
G1 X109.529 Y79.086 E38.7029 F2400
G0 X109.495 Y79.617 F5400
G1 X92.849 Y62.972 E39.4858 F2400
G0 X92.245 Y62.934 F5400
G1 X109.461 Y80.149 E40.2956 F2400
G0 X109.427 Y80.681 F5400
G1 X91.641 Y62.895 E41.1322 F2400
G0 X91.037 Y62.857 F5400
G1 X109.394 Y81.213 E41.9956 F2400
G0 X109.360 Y81.745 F5400
G1 X90.433 Y62.819 E42.8859 F2400
G0 X89.829 Y62.780 F5400
G1 X95.516 Y68.467 E43.1533 F2400
G0 X94.662 Y68.179 F5400
G1 X89.225 Y62.742 E43.4091 F2400
G0 X88.621 Y62.704 F5400
G1 X93.809 Y67.891 E43.6531 F2400
G0 X92.955 Y67.603 F5400
G1 X88.017 Y62.665 E43.8853 F2400
G0 X87.413 Y62.627 F5400
G1 X92.152 Y67.366 E44.1082 F2400
G0 X91.548 Y67.327 F5400
G1 X86.809 Y62.589 E44.3311 F2400
G0 X86.205 Y62.550 F5400
G1 X90.944 Y67.289 E44.5540 F2400
G0 X90.340 Y67.251 F5400
G1 X85.601 Y62.512 E44.7769 F2400
G0 X84.997 Y62.473 F5400
G1 X89.736 Y67.212 E44.9998 F2400
G0 X89.132 Y67.174 F5400
G1 X84.393 Y62.435 E45.2227 F2400
G0 X83.789 Y62.397 F5400
G1 X88.528 Y67.135 E45.4456 F2400
G0 X87.924 Y67.097 F5400
G1 X83.185 Y62.358 E45.6685 F2400
G0 X82.581 Y62.320 F5400
G1 X87.320 Y67.059 E45.8914 F2400
G0 X86.715 Y67.020 F5400
G1 X81.977 Y62.282 E46.1143 F2400
G0 X81.373 Y62.243 F5400
G1 X86.111 Y66.982 E46.3372 F2400
G0 X85.507 Y66.944 F5400
G1 X80.769 Y62.205 E46.5601 F2400
G0 X80.165 Y62.167 F5400
G1 X84.903 Y66.905 E46.7830 F2400
G0 X84.299 Y66.867 F5400
G1 X79.561 Y62.128 E47.0059 F2400
G0 X78.957 Y62.090 F5400
G1 X83.695 Y66.829 E47.2288 F2400
G0 X83.091 Y66.790 F5400
G1 X78.353 Y62.052 E47.4517 F2400
G0 X77.748 Y62.013 F5400
G1 X82.487 Y66.752 E47.6746 F2400
G0 X81.883 Y66.714 F5400
G1 X77.144 Y61.975 E47.8975 F2400
G0 X76.540 Y61.937 F5400
G1 X81.279 Y66.675 E48.1204 F2400
G0 X80.675 Y66.637 F5400
G1 X75.936 Y61.898 E48.3433 F2400
G0 X75.332 Y61.860 F5400
G1 X80.071 Y66.599 E48.5662 F2400
G0 X79.467 Y66.560 F5400
G1 X74.728 Y61.821 E48.7890 F2400
G0 X74.124 Y61.783 F5400
G1 X78.863 Y66.522 E49.0119 F2400
G0 X78.259 Y66.484 F5400
G1 X73.520 Y61.745 E49.2348 F2400
G0 X72.916 Y61.706 F5400
G1 X77.655 Y66.445 E49.4577 F2400
G0 X77.051 Y66.407 F5400
G1 X72.312 Y61.668 E49.6806 F2400
G0 X71.708 Y61.630 F5400
G1 X76.447 Y66.368 E49.9035 F2400
G0 X75.843 Y66.330 F5400
G1 X71.104 Y61.591 E50.1264 F2400
G0 X70.500 Y61.553 F5400
G1 X75.239 Y66.292 E50.3493 F2400
G0 X74.635 Y66.253 F5400
G1 X69.896 Y61.515 E50.5722 F2400
G0 X69.292 Y61.476 F5400
G1 X74.031 Y66.215 E50.7951 F2400
G0 X73.427 Y66.177 F5400
G1 X68.688 Y61.438 E51.0180 F2400
G0 X68.279 Y61.594 F5400
G1 X72.823 Y66.138 E51.2317 F2400
G0 X72.219 Y66.100 F5400
G1 X68.245 Y62.126 E51.4186 F2400
G0 X68.211 Y62.658 F5400
G1 X71.615 Y66.062 E51.5787 F2400
G0 X71.011 Y66.023 F5400
G1 X68.177 Y63.190 E51.7120 F2400
G0 X68.144 Y63.722 F5400
G1 X70.406 Y65.985 E51.8184 F2400
G0 X69.802 Y65.947 F5400
G1 X68.110 Y64.254 E51.8980 F2400
G0 X68.076 Y64.786 F5400
G1 X69.198 Y65.908 E51.9508 F2400
G0 X68.594 Y65.870 F5400
G1 X68.043 Y65.318 E51.9767 F2400
G0 X69.461 Y66.286 F5400
G0 X92.204 Y67.730
G0 X95.545 Y68.857
G0 X97.930 Y71.564
G0 X98.625 Y75.022
G0 X97.946 Y85.715
G0 X97.946 Y85.715
G0 X98.303 Y85.958
G0 X98.292 Y85.951
G1 X98.702 Y86.360 E51.9960 F2400
G0 X99.306 Y86.399 F5400
G1 X98.326 Y85.419 E52.0421 F2400
G0 X98.360 Y84.887 F5400
G1 X99.910 Y86.437 E52.1150 F2400
G0 X100.514 Y86.475 F5400
G1 X98.393 Y84.355 E52.2147 F2400
G0 X98.427 Y83.823 F5400
G1 X101.118 Y86.514 E52.3413 F2400
G0 X101.722 Y86.552 F5400
G1 X98.461 Y83.291 E52.4947 F2400
G0 X98.495 Y82.759 F5400
G1 X102.326 Y86.590 E52.6749 F2400
G0 X102.930 Y86.629 F5400
G1 X98.528 Y82.227 E52.8819 F2400
G0 X98.562 Y81.696 F5400
G1 X103.534 Y86.667 E53.1157 F2400
G0 X104.138 Y86.705 F5400
G1 X98.596 Y81.164 E53.3764 F2400
G0 X98.630 Y80.632 F5400
G1 X104.742 Y86.744 E53.6639 F2400
G0 X105.346 Y86.782 F5400
G1 X98.663 Y80.100 E53.9782 F2400
G0 X98.697 Y79.568 F5400
G1 X105.950 Y86.820 E54.3194 F2400
G0 X106.554 Y86.859 F5400
G1 X98.731 Y79.036 E54.6873 F2400
G0 X98.765 Y78.504 F5400
G1 X107.158 Y86.897 E55.0821 F2400
G0 X107.762 Y86.935 F5400
G1 X98.799 Y77.972 E55.5037 F2400
G0 X98.832 Y77.440 F5400
G1 X108.366 Y86.974 E55.9521 F2400
G0 X108.970 Y87.012 F5400
G1 X98.866 Y76.908 E56.4274 F2400
G0 X98.900 Y76.376 F5400
G1 X109.056 Y86.532 E56.9051 F2400
G0 X109.090 Y86.000 F5400
G1 X98.934 Y75.844 E57.3828 F2400
G0 X98.967 Y75.312 F5400
G1 X109.123 Y85.469 E57.8605 F2400
G0 X109.157 Y84.937 F5400
G1 X98.929 Y74.709 E58.3416 F2400
G0 X98.787 Y74.001 F5400
G1 X109.191 Y84.405 E58.8310 F2400
G0 X109.225 Y83.873 F5400
G1 X98.644 Y73.292 E59.3286 F2400
G0 X98.502 Y72.584 F5400
G1 X109.258 Y83.341 E59.8346 F2400
G0 X109.292 Y82.809 F5400
G1 X98.360 Y71.876 E60.3488 F2400
G0 X96.905 Y69.856 F5400
G1 X109.326 Y82.277 E60.9331 F2400
G0 X109.655 Y82.775 F5400
G0 X110.537 Y68.890
G0 X118.324 Y69.420
G0 X116.791 Y93.571
G0 X116.791 Y93.571
G0 X119.176 Y97.179
G0 X119.176 Y97.179
G0 X118.714 Y104.452
G0 X119.021 Y105.976
G0 X120.102 Y107.205
G0 X121.574 Y107.701
G0 X126.352 Y108.036
G0 X126.352 Y108.036
G0 X126.981 Y108.986
G0 X126.974 Y108.976
G1 X126.398 Y108.400 E60.9601 F2400
G0 X125.790 Y108.357 F5400
G1 X126.940 Y109.507 E61.0142 F2400
G0 X126.906 Y110.039 F5400
G1 X125.181 Y108.315 E61.0954 F2400
G0 X124.573 Y108.272 F5400
G1 X126.872 Y110.571 E61.2035 F2400
G0 X126.838 Y111.103 F5400
G1 X123.965 Y108.229 E61.3387 F2400
G0 X123.356 Y108.187 F5400
G1 X126.805 Y111.635 E61.5009 F2400
G0 X126.771 Y112.167 F5400
G1 X122.748 Y108.144 E61.6901 F2400
G0 X122.140 Y108.101 F5400
G1 X126.737 Y112.699 E61.9064 F2400
G0 X126.703 Y113.231 F5400
G1 X121.531 Y108.059 E62.1497 F2400
G0 X120.690 Y107.783 F5400
G1 X126.670 Y113.763 E62.4310 F2400
G0 X126.636 Y114.295 F5400
G1 X116.481 Y104.140 E62.9086 F2400
G0 X116.447 Y104.672 F5400
G1 X126.602 Y114.827 E63.3863 F2400
G0 X126.568 Y115.359 F5400
G1 X116.413 Y105.204 E63.8639 F2400
G0 X116.380 Y105.735 F5400
G1 X126.535 Y115.891 E64.3416 F2400
G0 X126.501 Y116.423 F5400
G1 X116.346 Y106.267 E64.8193 F2400
G0 X116.312 Y106.799 F5400
G1 X126.467 Y116.954 E65.2970 F2400
G0 X126.433 Y117.486 F5400
G1 X116.278 Y107.331 E65.7746 F2400
G0 X116.244 Y107.863 F5400
G1 X126.400 Y118.018 E66.2523 F2400
G0 X126.366 Y118.550 F5400
G1 X116.211 Y108.395 E66.7300 F2400
G0 X116.177 Y108.927 F5400
G1 X126.332 Y119.082 E67.2076 F2400
G0 X126.298 Y119.614 F5400
G1 X116.143 Y109.459 E67.6853 F2400
G0 X116.109 Y109.991 F5400
G1 X126.265 Y120.146 E68.1630 F2400
G0 X126.231 Y120.678 F5400
G1 X116.076 Y110.523 E68.6406 F2400
G0 X116.042 Y111.055 F5400
G1 X126.197 Y121.210 E69.1183 F2400
G0 X126.163 Y121.742 F5400
G1 X116.008 Y111.587 E69.5960 F2400
G0 X115.974 Y112.118 F5400
G1 X126.130 Y122.274 E70.0737 F2400
G0 X126.096 Y122.806 F5400
G1 X115.941 Y112.650 E70.5513 F2400
G0 X115.907 Y113.182 F5400
G1 X126.062 Y123.338 E71.0290 F2400
G0 X126.028 Y123.870 F5400
G1 X115.873 Y113.714 E71.5067 F2400
G0 X115.839 Y114.246 F5400
G1 X125.995 Y124.401 E71.9844 F2400
G0 X125.961 Y124.933 F5400
G1 X115.805 Y114.778 E72.4621 F2400
G0 X115.772 Y115.310 F5400
G1 X125.927 Y125.465 E72.9397 F2400
G0 X125.893 Y125.997 F5400
G1 X115.738 Y115.842 E73.4174 F2400
G0 X115.704 Y116.374 F5400
G1 X125.860 Y126.529 E73.8951 F2400
G0 X125.826 Y127.061 F5400
G1 X115.670 Y116.906 E74.3728 F2400
G0 X115.637 Y117.438 F5400
G1 X125.792 Y127.593 E74.8505 F2400
G0 X125.758 Y128.125 F5400
G1 X115.603 Y117.969 E75.3282 F2400
G0 X115.569 Y118.501 F5400
G1 X125.725 Y128.657 E75.8058 F2400
G0 X125.691 Y129.189 F5400
G1 X115.535 Y119.033 E76.2835 F2400
G0 X115.501 Y119.565 F5400
G1 X125.657 Y129.721 E76.7612 F2400
G0 X125.623 Y130.253 F5400
G1 X115.468 Y120.097 E77.2389 F2400
G0 X115.434 Y120.629 F5400
G1 X125.590 Y130.785 E77.7166 F2400
G0 X125.556 Y131.317 F5400
G1 X115.400 Y121.161 E78.1943 F2400
G0 X115.366 Y121.693 F5400
G1 X125.522 Y131.849 E78.6720 F2400
G0 X125.488 Y132.380 F5400
G1 X115.333 Y122.225 E79.1497 F2400
G0 X115.299 Y122.757 F5400
G1 X125.455 Y132.912 E79.6274 F2400
G0 X125.421 Y133.444 F5400
G1 X115.265 Y123.289 E80.1050 F2400
G0 X115.231 Y123.820 F5400
G1 X125.387 Y133.976 E80.5827 F2400
G0 X125.353 Y134.508 F5400
G1 X115.198 Y124.352 E81.0604 F2400
G0 X115.164 Y124.884 F5400
G1 X125.319 Y135.040 E81.5381 F2400
G0 X125.286 Y135.572 F5400
G1 X115.130 Y125.416 E82.0158 F2400
G0 X115.096 Y125.948 F5400
G1 X125.252 Y136.104 E82.4935 F2400
G0 X125.218 Y136.636 F5400
G1 X115.062 Y126.480 E82.9712 F2400
G0 X115.029 Y127.012 F5400
G1 X125.184 Y137.168 E83.4489 F2400
G0 X125.151 Y137.700 F5400
G1 X114.995 Y127.544 E83.9266 F2400
G0 X114.961 Y128.076 F5400
G1 X125.117 Y138.232 E84.4043 F2400
G0 X125.083 Y138.764 F5400
G1 X114.927 Y128.608 E84.8820 F2400
G0 X114.894 Y129.140 F5400
G1 X125.049 Y139.296 E85.3597 F2400
G0 X124.598 Y139.410 F5400
G1 X114.860 Y129.672 E85.8178 F2400
G0 X114.826 Y130.203 F5400
G1 X123.991 Y139.369 E86.2489 F2400
G0 X123.385 Y139.328 F5400
G1 X114.792 Y130.735 E86.6531 F2400
G0 X114.758 Y131.267 F5400
G1 X122.778 Y139.287 E87.0303 F2400
G0 X122.172 Y139.246 F5400
G1 X114.725 Y131.799 E87.3806 F2400
G0 X114.691 Y132.331 F5400
G1 X121.565 Y139.205 E87.7039 F2400
G0 X120.958 Y139.164 F5400
G1 X114.657 Y132.863 E88.0003 F2400
G0 X114.623 Y133.395 F5400
G1 X120.352 Y139.123 E88.2697 F2400
G0 X119.745 Y139.082 F5400
G1 X114.590 Y133.927 E88.5122 F2400
G0 X114.556 Y134.459 F5400
G1 X119.138 Y139.041 E88.7278 F2400
G0 X118.532 Y139.000 F5400
G1 X114.522 Y134.991 E88.9164 F2400
G0 X114.488 Y135.523 F5400
G1 X117.925 Y138.960 E89.0781 F2400
G0 X117.319 Y138.919 F5400
G1 X114.455 Y136.054 E89.2128 F2400
G0 X114.421 Y136.586 F5400
G1 X116.712 Y138.878 E89.3206 F2400
G0 X116.105 Y138.837 F5400
G1 X114.387 Y137.118 E89.4014 F2400
G0 X114.353 Y137.650 F5400
G1 X115.499 Y138.796 E89.4553 F2400
G0 X114.892 Y138.755 F5400
G1 X114.319 Y138.182 E89.4822 F2400
G0 X116.515 Y103.608 F5400
G1 X118.595 Y105.688 E89.5801 F2400
G0 X118.453 Y104.980 F5400
G1 X116.548 Y103.076 E89.6697 F2400
G0 X116.582 Y102.544 F5400
G1 X118.361 Y104.323 E89.7534 F2400
G0 X118.395 Y103.791 F5400
G1 X116.616 Y102.012 E89.8370 F2400
G0 X116.650 Y101.480 F5400
G1 X118.429 Y103.259 E89.9207 F2400
G0 X118.463 Y102.727 F5400
G1 X116.684 Y100.948 E90.0044 F2400
G0 X116.717 Y100.416 F5400
G1 X118.497 Y102.196 E90.0881 F2400
G0 X118.530 Y101.664 F5400
G1 X116.751 Y99.884 E90.1718 F2400
G0 X116.785 Y99.353 F5400
G1 X118.564 Y101.132 E90.2555 F2400
G0 X118.598 Y100.600 F5400
G1 X116.819 Y98.821 E90.3392 F2400
G0 X116.852 Y98.289 F5400
G1 X118.632 Y100.068 E90.4228 F2400
G0 X118.665 Y99.536 F5400
G1 X116.886 Y97.757 E90.5065 F2400
G0 X116.920 Y97.225 F5400
G1 X118.699 Y99.004 E90.5902 F2400
G0 X118.733 Y98.472 F5400
G1 X116.954 Y96.693 E90.6739 F2400
G0 X116.987 Y96.161 F5400
G1 X118.767 Y97.940 E90.7576 F2400
G0 X118.800 Y97.408 F5400
G1 X117.021 Y95.629 E90.8413 F2400
G0 X117.055 Y95.097 F5400
G1 X118.834 Y96.876 E90.9250 F2400
G0 X118.868 Y96.345 F5400
G1 X117.089 Y94.565 E91.0087 F2400
G0 X117.123 Y94.033 F5400
G1 X118.902 Y95.813 E91.0923 F2400
G0 X118.936 Y95.281 F5400
G1 X117.156 Y93.501 E91.1760 F2400
G0 X117.190 Y92.970 F5400
G1 X118.969 Y94.749 E91.2597 F2400
G0 X119.003 Y94.217 F5400
G1 X117.224 Y92.438 E91.3434 F2400
G0 X117.258 Y91.906 F5400
G1 X119.037 Y93.685 E91.4271 F2400
G0 X119.071 Y93.153 F5400
G1 X117.291 Y91.374 E91.5108 F2400
G0 X117.325 Y90.842 F5400
G1 X119.104 Y92.621 E91.5945 F2400
G0 X119.138 Y92.089 F5400
G1 X117.359 Y90.310 E91.6781 F2400
G0 X117.393 Y89.778 F5400
G1 X119.172 Y91.557 E91.7618 F2400
G0 X119.206 Y91.025 F5400
G1 X117.427 Y89.246 E91.8455 F2400
G0 X117.460 Y88.714 F5400
G1 X119.240 Y90.494 E91.9292 F2400
G0 X119.273 Y89.962 F5400
G1 X117.494 Y88.182 E92.0129 F2400
G0 X117.528 Y87.650 F5400
G1 X119.307 Y89.430 E92.0966 F2400
G0 X119.341 Y88.898 F5400
G1 X117.562 Y87.119 E92.1803 F2400
G0 X117.595 Y86.587 F5400
G1 X119.375 Y88.366 E92.2640 F2400
G0 X119.408 Y87.834 F5400
G1 X117.629 Y86.055 E92.3476 F2400
G0 X117.663 Y85.523 F5400
G1 X119.442 Y87.302 E92.4313 F2400
G0 X119.476 Y86.770 F5400
G1 X117.697 Y84.991 E92.5150 F2400
G0 X117.730 Y84.459 F5400
G1 X119.510 Y86.238 E92.5987 F2400
G0 X119.543 Y85.706 F5400
G1 X117.764 Y83.927 E92.6824 F2400
G0 X117.798 Y83.395 F5400
G1 X119.577 Y85.174 E92.7661 F2400
G0 X119.611 Y84.642 F5400
G1 X117.832 Y82.863 E92.8498 F2400
G0 X117.866 Y82.331 F5400
G1 X119.645 Y84.111 E92.9335 F2400
G0 X119.679 Y83.579 F5400
G1 X117.899 Y81.799 E93.0171 F2400
G0 X117.933 Y81.268 F5400
G1 X119.712 Y83.047 E93.1008 F2400
G0 X119.746 Y82.515 F5400
G1 X117.967 Y80.736 E93.1845 F2400
G0 X118.001 Y80.204 F5400
G1 X119.780 Y81.983 E93.2682 F2400
G0 X119.814 Y81.451 F5400
G1 X118.034 Y79.672 E93.3519 F2400
G0 X118.068 Y79.140 F5400
G1 X119.847 Y80.919 E93.4356 F2400
G0 X119.881 Y80.387 F5400
G1 X118.102 Y78.608 E93.5193 F2400
G0 X118.136 Y78.076 F5400
G1 X119.915 Y79.855 E93.6029 F2400
G0 X119.949 Y79.323 F5400
G1 X118.170 Y77.544 E93.6866 F2400
G0 X118.203 Y77.012 F5400
G1 X119.983 Y78.791 E93.7703 F2400
G0 X120.016 Y78.260 F5400
G1 X118.237 Y76.480 E93.8540 F2400
G0 X118.271 Y75.948 F5400
G1 X120.050 Y77.728 E93.9377 F2400
G0 X120.084 Y77.196 F5400
G1 X118.305 Y75.416 E94.0214 F2400
G0 X118.338 Y74.885 F5400
G1 X120.118 Y76.664 E94.1051 F2400
G0 X120.151 Y76.132 F5400
G1 X118.372 Y74.353 E94.1888 F2400
G0 X118.406 Y73.821 F5400
G1 X120.185 Y75.600 E94.2724 F2400
G0 X120.219 Y75.068 F5400
G1 X118.440 Y73.289 E94.3561 F2400
G0 X118.473 Y72.757 F5400
G1 X120.253 Y74.536 E94.4398 F2400
G0 X120.286 Y74.004 F5400
G1 X118.507 Y72.225 E94.5235 F2400
G0 X118.541 Y71.693 F5400
G1 X120.320 Y73.472 E94.6072 F2400
G0 X120.354 Y72.940 F5400
G1 X118.575 Y71.161 E94.6909 F2400
G0 X118.609 Y70.629 F5400
G1 X120.388 Y72.408 E94.7746 F2400
G0 X120.422 Y71.877 F5400
G1 X118.642 Y70.097 E94.8582 F2400
G0 X118.676 Y69.565 F5400
G1 X120.455 Y71.345 E94.9419 F2400
G0 X120.489 Y70.813 F5400
G1 X113.991 Y64.314 E95.2476 F2400
G0 X114.595 Y64.353 F5400
G1 X120.523 Y70.281 E95.5264 F2400
G0 X120.557 Y69.749 F5400
G1 X115.199 Y64.391 E95.7785 F2400
G0 X115.803 Y64.429 F5400
G1 X120.590 Y69.217 E96.0036 F2400
G0 X120.624 Y68.685 F5400
G1 X116.407 Y64.468 E96.2020 F2400
G0 X117.011 Y64.506 F5400
G1 X120.658 Y68.153 E96.3736 F2400
G0 X120.692 Y67.621 F5400
G1 X117.615 Y64.544 E96.5183 F2400
G0 X118.219 Y64.583 F5400
G1 X120.726 Y67.089 E96.6362 F2400
G0 X118.159 Y69.048 F5400
G1 X113.387 Y64.276 E96.8607 F2400
G0 X112.783 Y64.238 F5400
G1 X117.552 Y69.007 E97.0850 F2400
G0 X116.945 Y68.965 F5400
G1 X112.179 Y64.199 E97.3092 F2400
G0 X111.575 Y64.161 F5400
G1 X116.338 Y68.924 E97.5332 F2400
G0 X115.731 Y68.883 F5400
G1 X110.971 Y64.123 E97.7571 F2400
G0 X110.367 Y64.084 F5400
G1 X115.124 Y68.842 E97.9809 F2400
G0 X114.517 Y68.800 F5400
G1 X109.762 Y64.046 E98.2045 F2400
G0 X109.158 Y64.008 F5400
G1 X113.910 Y68.759 E98.4280 F2400
G0 X113.303 Y68.718 F5400
G1 X108.554 Y63.969 E98.6514 F2400
G0 X107.950 Y63.931 F5400
G1 X112.696 Y68.676 E98.8746 F2400
G0 X112.089 Y68.635 F5400
G1 X107.346 Y63.892 E99.0976 F2400
G0 X106.742 Y63.854 F5400
G1 X111.482 Y68.594 E99.3206 F2400
G0 X110.875 Y68.552 F5400
G1 X106.138 Y63.816 E99.5434 F2400
G0 X105.534 Y63.777 F5400
G1 X110.268 Y68.511 E99.7660 F2400
; ------------------------------------
; Layer #1
; ------------------------------------
M106 S0 ;turn off fan
G21 ; mm
G90 ; abs
G92 E0 ;reset extr
;segType:HShell
G0 F4800 E-1.0000
G0 F1200 Z0.400
G0 X98.607 Y80.995 F7200
G0 F4800 E0.0000
G1 X110.140 Y69.462 E0.5425 F3600
;segType:Perimeter
G0 X110.907 Y69.377 F7200
G1 X109.736 Y87.822 E1.1572 F2160
G1 X97.461 Y87.043 E1.5663
G1 X98.223 Y75.050 E1.9660
G1 X97.558 Y71.748 E2.0780
G1 X95.316 Y69.201 E2.1908
G1 X92.126 Y68.126 E2.3028
G1 X67.203 Y66.543 E3.1334
G1 X67.580 Y60.606 E3.3313
G1 X119.133 Y63.879 E5.0494
G1 X119.380 Y64.020 E5.0589
G1 X121.527 Y66.459 E5.1669
G1 X119.117 Y104.425 E6.4322
G1 X119.392 Y105.792 E6.4786
G1 X120.332 Y106.860 E6.5259
G1 X121.653 Y107.305 E6.5723
G1 X127.818 Y107.697 E6.7778
G1 X125.755 Y140.176 E7.8602
G1 X125.647 Y140.244 E7.8644
G1 X113.476 Y139.471 E8.2701
G1 X117.886 Y70.021 E10.5847
G1 X117.823 Y69.757 E10.5937
G1 X110.970 Y69.321 E10.8221
G0 X110.970 Y69.321 F7200
G0 X110.910 Y69.318
G0 X110.901 Y69.461
G0 X110.901 Y69.461
G0 X110.436 Y70.402
;segType:Loop
G0 X110.442 Y70.390
G1 X109.362 Y87.398 E11.3889 F3600
G1 X97.886 Y86.670 E11.7714
G1 X98.625 Y75.022 E12.1595
G1 X97.929 Y71.564 E12.2769
G1 X95.545 Y68.857 E12.3968
G1 X92.204 Y67.730 E12.5141
G1 X67.628 Y66.169 E13.3332
G1 X67.954 Y61.030 E13.5044
G1 X119.015 Y64.273 E15.2062
G1 X119.124 Y64.335 E15.2103
G1 X121.118 Y66.599 E15.3107
G1 X118.714 Y104.452 E16.5722
G1 X119.021 Y105.976 E16.6239
G1 X120.102 Y107.204 E16.6784
G1 X121.575 Y107.701 E16.7301
G1 X127.393 Y108.070 E16.9240
G1 X125.384 Y139.719 E17.9787
G1 X125.305 Y139.821 E17.9830
G1 X113.901 Y139.097 E18.3631
G1 X118.289 Y69.987 E20.6663
G1 X118.145 Y69.376 E20.6872
G1 X110.537 Y68.893 E20.9407
G1 X110.454 Y70.190 E20.9840
;segType:HShell
G0 X110.101 Y70.067 F7200
G1 X98.568 Y81.599 E21.5264 F3600
G0 X98.530 Y82.203 F7200
G1 X110.063 Y70.671 E22.0689 F3600
G0 X110.025 Y71.275 F7200
G1 X98.492 Y82.807 E22.6114 F3600
G0 X98.453 Y83.412 F7200
G1 X109.986 Y71.879 E23.1539 F3600
G0 X109.948 Y72.483 F7200
G1 X98.415 Y84.016 E23.6963 F3600
G0 X98.377 Y84.620 F7200
G1 X109.910 Y73.087 E24.2388 F3600
G0 X109.871 Y73.691 F7200
G1 X98.338 Y85.224 E24.7813 F3600
G0 X98.300 Y85.828 F7200
G1 X109.833 Y74.295 E25.3238 F3600
G0 X109.794 Y74.899 F7200
G1 X98.355 Y86.338 E25.8618 F3600
G0 X98.887 Y86.372 F7200
G1 X109.756 Y75.503 E26.3731 F3600
G0 X109.718 Y76.107 F7200
G1 X99.419 Y86.406 E26.8575 F3600
G0 X99.951 Y86.440 F7200
G1 X109.679 Y76.711 E27.3151 F3600
G0 X109.641 Y77.315 F7200
G1 X100.483 Y86.473 E27.7459 F3600
G0 X101.014 Y86.507 F7200
G1 X109.603 Y77.919 E28.1499 F3600
G0 X109.564 Y78.523 F7200
G1 X101.546 Y86.541 E28.5270 F3600
G0 X102.078 Y86.575 F7200
G1 X109.526 Y79.127 E28.8774 F3600
G0 X109.488 Y79.731 F7200
G1 X102.610 Y86.608 E29.2008 F3600
G0 X103.142 Y86.642 F7200
G1 X109.449 Y80.335 E29.4975 F3600
G0 X109.411 Y80.939 F7200
G1 X103.674 Y86.676 E29.7673 F3600
G0 X104.206 Y86.710 F7200
G1 X109.373 Y81.543 E30.0104 F3600
G0 X109.334 Y82.147 F7200
G1 X104.738 Y86.744 E30.2266 F3600
G0 X105.270 Y86.777 F7200
G1 X109.296 Y82.751 E30.4159 F3600
G0 X109.257 Y83.355 F7200
G1 X105.802 Y86.811 E30.5785 F3600
G0 X106.334 Y86.845 F7200
G1 X109.219 Y83.959 E30.7142 F3600
G0 X109.181 Y84.563 F7200
G1 X106.866 Y86.879 E30.8231 F3600
G0 X107.398 Y86.912 F7200
G1 X109.142 Y85.168 E30.9051 F3600
G0 X109.104 Y85.772 F7200
G1 X107.930 Y86.946 E30.9604 F3600
G0 X108.461 Y86.980 F7200
G1 X109.066 Y86.376 E30.9888 F3600
G0 X109.362 Y87.395 F7200
G0 X110.537 Y68.893
G0 X118.145 Y69.376
G0 X118.289 Y69.987
G0 X115.781 Y109.478
G0 X115.781 Y109.478
G0 X124.485 Y139.421
G0 X124.481 Y139.408
G1 X125.080 Y138.809 E31.0170 F3600
G0 X125.119 Y138.205 F7200
G1 X123.949 Y139.374 E31.0720 F3600
G0 X123.417 Y139.341 F7200
G1 X125.157 Y137.601 E31.1539 F3600
G0 X125.195 Y136.997 F7200
G1 X122.885 Y139.307 E31.2625 F3600
G0 X122.353 Y139.273 F7200
G1 X125.234 Y136.393 E31.3980 F3600
G0 X125.272 Y135.789 F7200
G1 X121.822 Y139.239 E31.5603 F3600
G0 X121.290 Y139.205 F7200
G1 X125.311 Y135.185 E31.7494 F3600
G0 X125.349 Y134.581 F7200
G1 X120.758 Y139.172 E31.9654 F3600
G0 X120.226 Y139.138 F7200
G1 X125.387 Y133.976 E32.2082 F3600
G0 X125.426 Y133.372 F7200
G1 X119.694 Y139.104 E32.4778 F3600
G0 X119.162 Y139.070 F7200
G1 X125.464 Y132.768 E32.7742 F3600
G0 X125.502 Y132.164 F7200
G1 X118.630 Y139.037 E33.0974 F3600
G0 X118.098 Y139.003 F7200
G1 X125.541 Y131.560 E33.4475 F3600
G0 X125.579 Y130.956 F7200
G1 X117.566 Y138.969 E33.8244 F3600
G0 X117.034 Y138.935 F7200
G1 X125.617 Y130.352 E34.2281 F3600
G0 X125.656 Y129.748 F7200
G1 X116.502 Y138.902 E34.6587 F3600
G0 X115.970 Y138.868 F7200
G1 X125.694 Y129.144 E35.1161 F3600
G0 X125.732 Y128.540 F7200
G1 X115.439 Y138.834 E35.6002 F3600
G0 X114.907 Y138.800 F7200
G1 X125.771 Y127.936 E36.1113 F3600
G0 X125.809 Y127.332 F7200
G1 X114.375 Y138.766 E36.6491 F3600
G0 X114.314 Y138.261 F7200
G1 X125.847 Y126.728 E37.1916 F3600
G0 X125.886 Y126.124 F7200
G1 X114.353 Y137.657 E37.7341 F3600
G0 X114.391 Y137.053 F7200
G1 X125.924 Y125.520 E38.2766 F3600
G0 X125.963 Y124.916 F7200
G1 X114.429 Y136.449 E38.8190 F3600
G0 X114.468 Y135.845 F7200
G1 X126.001 Y124.312 E39.3615 F3600
G0 X126.039 Y123.708 F7200
G1 X114.506 Y135.241 E39.9040 F3600
G0 X114.544 Y134.637 F7200
G1 X126.078 Y123.104 E40.4465 F3600
G0 X126.116 Y122.500 F7200
G1 X114.583 Y134.033 E40.9890 F3600
G0 X114.621 Y133.429 F7200
G1 X126.154 Y121.896 E41.5315 F3600
G0 X126.193 Y121.292 F7200
G1 X114.660 Y132.825 E42.0739 F3600
G0 X114.698 Y132.221 F7200
G1 X126.231 Y120.688 E42.6164 F3600
G0 X126.269 Y120.084 F7200
G1 X114.736 Y131.617 E43.1589 F3600
G0 X114.775 Y131.013 F7200
G1 X126.308 Y119.480 E43.7014 F3600
G0 X126.346 Y118.876 F7200
G1 X114.813 Y130.409 E44.2439 F3600
G0 X114.851 Y129.805 F7200
G1 X126.384 Y118.271 E44.7864 F3600
G0 X126.423 Y117.667 F7200
G1 X114.890 Y129.201 E45.3288 F3600
G0 X114.928 Y128.597 F7200
G1 X126.461 Y117.063 E45.8713 F3600
G0 X126.499 Y116.459 F7200
G1 X114.966 Y127.993 E46.4138 F3600
G0 X115.005 Y127.388 F7200
G1 X126.538 Y115.855 E46.9563 F3600
G0 X126.576 Y115.251 F7200
G1 X115.043 Y126.784 E47.4988 F3600
G0 X115.081 Y126.180 F7200
G1 X126.615 Y114.647 E48.0413 F3600
G0 X126.653 Y114.043 F7200
G1 X115.120 Y125.576 E48.5838 F3600
G0 X115.158 Y124.972 F7200
G1 X126.691 Y113.439 E49.1262 F3600
G0 X126.730 Y112.835 F7200
G1 X115.196 Y124.368 E49.6687 F3600
G0 X115.235 Y123.764 F7200
G1 X126.768 Y112.231 E50.2112 F3600
G0 X126.806 Y111.627 F7200
G1 X115.273 Y123.160 E50.7537 F3600
G0 X115.312 Y122.556 F7200
G1 X126.845 Y111.023 E51.2962 F3600
G0 X126.883 Y110.419 F7200
G1 X115.350 Y121.952 E51.8387 F3600
G0 X115.388 Y121.348 F7200
G1 X126.921 Y109.815 E52.3811 F3600
G0 X126.960 Y109.211 F7200
G1 X115.427 Y120.744 E52.9236 F3600
G0 X115.465 Y120.140 F7200
G1 X126.998 Y108.607 E53.4661 F3600
G0 X126.655 Y108.385 F7200
G1 X115.503 Y119.536 E53.9906 F3600
G0 X115.542 Y118.932 F7200
G1 X126.123 Y108.351 E54.4884 F3600
G0 X125.591 Y108.317 F7200
G1 X115.580 Y118.328 E54.9592 F3600
G0 X115.618 Y117.724 F7200
G1 X125.059 Y108.283 E55.4033 F3600
G0 X124.527 Y108.249 F7200
G1 X115.657 Y117.120 E55.8205 F3600
G0 X115.695 Y116.516 F7200
G1 X123.995 Y108.216 E56.2109 F3600
G0 X123.463 Y108.182 F7200
G1 X115.733 Y115.912 E56.5745 F3600
G0 X115.772 Y115.308 F7200
G1 X122.931 Y108.148 E56.9113 F3600
G0 X122.399 Y108.114 F7200
G1 X115.810 Y114.704 E57.2212 F3600
G0 X115.848 Y114.100 F7200
G1 X121.867 Y108.081 E57.5043 F3600
G0 X121.370 Y108.012 F7200
G1 X115.887 Y113.496 E57.7623 F3600
G0 X115.925 Y112.892 F7200
G1 X120.947 Y107.869 E57.9985 F3600
G0 X120.524 Y107.727 F7200
G1 X115.964 Y112.288 E58.2130 F3600
G0 X116.002 Y111.683 F7200
G1 X120.101 Y107.584 E58.4058 F3600
G0 X119.760 Y107.360 F7200
G1 X116.040 Y111.079 E58.5808 F3600
G0 X116.079 Y110.475 F7200
G1 X119.495 Y107.059 E58.7414 F3600
G0 X119.230 Y106.759 F7200
G1 X116.117 Y109.871 E58.8879 F3600
G0 X116.155 Y109.267 F7200
G1 X118.965 Y106.458 E59.0200 F3600
G0 X118.700 Y106.157 F7200
G1 X116.194 Y108.663 E59.1379 F3600
G0 X116.232 Y108.059 F7200
G1 X118.597 Y105.695 E59.2491 F3600
G0 X118.502 Y105.224 F7200
G1 X116.270 Y107.455 E59.3541 F3600
G0 X116.309 Y106.851 F7200
G1 X118.407 Y104.753 E59.4528 F3600
G0 X118.367 Y104.227 F7200
G1 X116.347 Y106.247 E59.5478 F3600
G0 X116.385 Y105.643 F7200
G1 X118.406 Y103.623 E59.6428 F3600
G0 X118.444 Y103.019 F7200
G1 X116.424 Y105.039 E59.7379 F3600
G0 X116.462 Y104.435 F7200
G1 X118.482 Y102.415 E59.8329 F3600
G0 X118.521 Y101.811 F7200
G1 X116.500 Y103.831 E59.9279 F3600
G0 X116.539 Y103.227 F7200
G1 X118.559 Y101.207 E60.0230 F3600
G0 X118.598 Y100.603 F7200
G1 X116.577 Y102.623 E60.1180 F3600
G0 X116.615 Y102.019 F7200
G1 X118.636 Y99.999 E60.2130 F3600
G0 X118.674 Y99.394 F7200
G1 X116.654 Y101.415 E60.3081 F3600
G0 X116.692 Y100.811 F7200
G1 X118.713 Y98.790 E60.4031 F3600
G0 X118.751 Y98.186 F7200
G1 X116.731 Y100.207 E60.4981 F3600
G0 X116.769 Y99.603 F7200
G1 X118.789 Y97.582 E60.5932 F3600
G0 X118.828 Y96.978 F7200
G1 X116.807 Y98.999 E60.6882 F3600
G0 X116.846 Y98.395 F7200
G1 X118.866 Y96.374 E60.7832 F3600
G0 X118.904 Y95.770 F7200
G1 X116.884 Y97.791 E60.8783 F3600
G0 X116.922 Y97.187 F7200
G1 X118.943 Y95.166 E60.9733 F3600
G0 X118.981 Y94.562 F7200
G1 X116.961 Y96.583 E61.0683 F3600
G0 X116.999 Y95.979 F7200
G1 X119.019 Y93.958 E61.1634 F3600
G0 X119.058 Y93.354 F7200
G1 X117.037 Y95.374 E61.2584 F3600
G0 X117.076 Y94.770 F7200
G1 X119.096 Y92.750 E61.3534 F3600
G0 X119.134 Y92.146 F7200
G1 X117.114 Y94.166 E61.4485 F3600
G0 X117.152 Y93.562 F7200
G1 X119.173 Y91.542 E61.5435 F3600
G0 X119.211 Y90.938 F7200
G1 X117.191 Y92.958 E61.6385 F3600
G0 X117.229 Y92.354 F7200
G1 X119.250 Y90.334 E61.7336 F3600
G0 X119.288 Y89.730 F7200
G1 X117.268 Y91.750 E61.8286 F3600
G0 X117.306 Y91.146 F7200
G1 X119.326 Y89.126 E61.9236 F3600
G0 X119.365 Y88.522 F7200
G1 X117.344 Y90.542 E62.0187 F3600
G0 X117.383 Y89.938 F7200
G1 X119.403 Y87.918 E62.1137 F3600
G0 X119.441 Y87.314 F7200
G1 X117.421 Y89.334 E62.2088 F3600
G0 X117.459 Y88.730 F7200
G1 X119.480 Y86.710 E62.3038 F3600
G0 X119.518 Y86.106 F7200
G1 X117.498 Y88.126 E62.3988 F3600
G0 X117.536 Y87.522 F7200
G1 X119.556 Y85.502 E62.4939 F3600
G0 X119.595 Y84.897 F7200
G1 X117.574 Y86.918 E62.5889 F3600
G0 X117.613 Y86.314 F7200
G1 X119.633 Y84.293 E62.6839 F3600
G0 X119.671 Y83.689 F7200
G1 X117.651 Y85.710 E62.7790 F3600
G0 X117.689 Y85.106 F7200
G1 X119.710 Y83.085 E62.8740 F3600
G0 X119.748 Y82.481 F7200
G1 X117.728 Y84.502 E62.9690 F3600
G0 X117.766 Y83.898 F7200
G1 X119.787 Y81.877 E63.0641 F3600
G0 X119.825 Y81.273 F7200
G1 X117.804 Y83.294 E63.1591 F3600
G0 X117.843 Y82.690 F7200
G1 X119.863 Y80.669 E63.2541 F3600
G0 X119.902 Y80.065 F7200
G1 X117.881 Y82.086 E63.3492 F3600
G0 X117.920 Y81.482 F7200
G1 X119.940 Y79.461 E63.4442 F3600
G0 X119.978 Y78.857 F7200
G1 X117.958 Y80.877 E63.5392 F3600
G0 X117.996 Y80.273 F7200
G1 X120.017 Y78.253 E63.6343 F3600
G0 X120.055 Y77.649 F7200
G1 X118.035 Y79.669 E63.7293 F3600
G0 X118.073 Y79.065 F7200
G1 X120.093 Y77.045 E63.8243 F3600
G0 X120.132 Y76.441 F7200
G1 X118.111 Y78.461 E63.9194 F3600
G0 X118.150 Y77.857 F7200
G1 X120.170 Y75.837 E64.0144 F3600
G0 X120.208 Y75.233 F7200
G1 X118.188 Y77.253 E64.1094 F3600
G0 X118.226 Y76.649 F7200
G1 X120.247 Y74.629 E64.2045 F3600
G0 X120.285 Y74.025 F7200
G1 X118.265 Y76.045 E64.2995 F3600
G0 X118.303 Y75.441 F7200
G1 X120.324 Y73.421 E64.3945 F3600
G0 X120.362 Y72.817 F7200
G1 X118.341 Y74.837 E64.4896 F3600
G0 X118.380 Y74.233 F7200
G1 X120.400 Y72.213 E64.5846 F3600
G0 X120.439 Y71.609 F7200
G1 X118.418 Y73.629 E64.6796 F3600
G0 X118.457 Y73.025 F7200
G1 X120.477 Y71.005 E64.7747 F3600
G0 X120.515 Y70.401 F7200
G1 X118.495 Y72.421 E64.8697 F3600
G0 X118.533 Y71.817 F7200
G1 X120.554 Y69.796 E64.9647 F3600
G0 X120.592 Y69.192 F7200
G1 X118.572 Y71.213 E65.0598 F3600
G0 X118.610 Y70.609 F7200
G1 X120.630 Y68.588 E65.1548 F3600
G0 X120.669 Y67.984 F7200
G1 X118.648 Y70.005 E65.2498 F3600
G0 X118.552 Y69.535 F7200
G1 X120.707 Y67.380 E65.3512 F3600
G0 X120.745 Y66.776 F7200
G1 X118.444 Y69.078 E65.4594 F3600
G0 X117.953 Y69.003 F7200
G1 X120.506 Y66.450 E65.5795 F3600
G0 X120.242 Y66.149 F7200
G1 X117.421 Y68.969 E65.7122 F3600
G0 X116.889 Y68.936 F7200
G1 X119.977 Y65.848 E65.8574 F3600
G0 X119.712 Y65.547 F7200
G1 X116.357 Y68.902 E66.0152 F3600
G0 X115.825 Y68.868 F7200
G1 X119.447 Y65.246 E66.1856 F3600
G0 X119.182 Y64.946 F7200
G1 X115.293 Y68.834 E66.3685 F3600
G0 X114.761 Y68.800 F7200
G1 X118.917 Y64.645 E66.5640 F3600
G0 X118.402 Y64.595 F7200
G1 X114.229 Y68.767 E66.7602 F3600
G0 X113.698 Y68.733 F7200
G1 X117.870 Y64.561 E66.9565 F3600
G0 X117.338 Y64.527 F7200
G1 X113.166 Y68.699 E67.1527 F3600
G0 X112.634 Y68.665 F7200
G1 X116.806 Y64.493 E67.3489 F3600
G0 X116.274 Y64.459 F7200
G1 X112.102 Y68.632 E67.5452 F3600
G0 X111.570 Y68.598 F7200
G1 X115.742 Y64.426 E67.7414 F3600
G0 X115.210 Y64.392 F7200
G1 X111.038 Y68.564 E67.9377 F3600
G0 X110.506 Y68.530 F7200
G1 X114.678 Y64.358 E68.1339 F3600
G0 X114.146 Y64.324 F7200
G1 X98.683 Y79.787 E68.8613 F3600
G0 X98.722 Y79.183 F7200
G1 X113.614 Y64.291 E69.5618 F3600
G0 X113.083 Y64.257 F7200
G1 X98.760 Y78.579 E70.2354 F3600
G0 X98.798 Y77.975 F7200
G1 X112.551 Y64.223 E70.8823 F3600
G0 X112.019 Y64.189 F7200
G1 X98.837 Y77.371 E71.5023 F3600
G0 X98.875 Y76.767 F7200
G1 X111.487 Y64.155 E72.0956 F3600
G0 X110.955 Y64.122 F7200
G1 X98.914 Y76.163 E72.6619 F3600
G0 X98.952 Y75.559 F7200
G1 X110.423 Y64.088 E73.2015 F3600
G0 X109.891 Y64.054 F7200
G1 X98.981 Y74.964 E73.7147 F3600
G0 X98.886 Y74.493 F7200
G1 X109.359 Y64.020 E74.2073 F3600
G0 X108.827 Y63.987 F7200
G1 X98.791 Y74.023 E74.6794 F3600
G0 X98.697 Y73.552 F7200
G1 X108.295 Y63.953 E75.1309 F3600
G0 X107.763 Y63.919 F7200
G1 X98.602 Y73.081 E75.5618 F3600
G0 X98.507 Y72.610 F7200
G1 X107.232 Y63.885 E75.9722 F3600
G0 X106.700 Y63.851 F7200
G1 X98.412 Y72.139 E76.3620 F3600
G0 X98.318 Y71.668 F7200
G1 X106.168 Y63.818 E76.7312 F3600
G0 X105.636 Y63.784 F7200
G1 X98.150 Y71.270 E77.0833 F3600
G0 X97.885 Y70.969 F7200
G1 X105.104 Y63.750 E77.4229 F3600
G0 X104.572 Y63.716 F7200
G1 X97.620 Y70.668 E77.7499 F3600
G0 X97.355 Y70.367 F7200
G1 X104.040 Y63.683 E78.0643 F3600
G0 X103.508 Y63.649 F7200
G1 X97.091 Y70.066 E78.3662 F3600
G0 X96.826 Y69.766 F7200
G1 X102.976 Y63.615 E78.6555 F3600
G0 X102.444 Y63.581 F7200
G1 X96.561 Y69.465 E78.9322 F3600
G0 X96.296 Y69.164 F7200
G1 X101.912 Y63.548 E79.1964 F3600
G0 X101.381 Y63.514 F7200
G1 X96.031 Y68.863 E79.4480 F3600
G0 X95.766 Y68.562 F7200
G1 X100.849 Y63.480 E79.6871 F3600
G0 X100.317 Y63.446 F7200
G1 X95.352 Y68.411 E79.9206 F3600
G0 X94.929 Y68.269 F7200
G1 X99.785 Y63.412 E80.1491 F3600
G0 X99.253 Y63.379 F7200
G1 X94.506 Y68.126 E80.3723 F3600
G0 X94.083 Y67.983 F7200
G1 X98.721 Y63.345 E80.5905 F3600
G0 X98.189 Y63.311 F7200
G1 X93.660 Y67.841 E80.8036 F3600
G0 X93.237 Y67.698 F7200
G1 X97.657 Y63.277 E81.0115 F3600
G0 X97.125 Y63.244 F7200
G1 X92.813 Y67.555 E81.2143 F3600
G0 X92.390 Y67.413 F7200
G1 X96.593 Y63.210 E81.4120 F3600
G0 X96.061 Y63.176 F7200
G1 X91.889 Y67.349 E81.6083 F3600
G0 X91.357 Y67.315 F7200
G1 X95.529 Y63.142 E81.8046 F3600
G0 X94.998 Y63.108 F7200
G1 X90.825 Y67.281 E82.0009 F3600
G0 X90.293 Y67.248 F7200
G1 X94.466 Y63.075 E82.1971 F3600
G0 X93.934 Y63.041 F7200
G1 X89.761 Y67.214 E82.3934 F3600
G0 X89.229 Y67.180 F7200
G1 X93.402 Y63.007 E82.5897 F3600
G0 X92.870 Y62.973 F7200
G1 X88.697 Y67.146 E82.7860 F3600
G0 X88.165 Y67.112 F7200
G1 X92.338 Y62.940 E82.9823 F3600
G0 X91.806 Y62.906 F7200
G1 X87.633 Y67.079 E83.1786 F3600
G0 X87.101 Y67.045 F7200
G1 X91.274 Y62.872 E83.3748 F3600
G0 X90.742 Y62.838 F7200
G1 X86.569 Y67.011 E83.5711 F3600
G0 X86.038 Y66.977 F7200
G1 X90.210 Y62.804 E83.7674 F3600
G0 X89.678 Y62.771 F7200
G1 X85.506 Y66.944 E83.9637 F3600
G0 X84.974 Y66.910 F7200
G1 X89.147 Y62.737 E84.1600 F3600
G0 X88.615 Y62.703 F7200
G1 X84.442 Y66.876 E84.3562 F3600
G0 X83.910 Y66.842 F7200
G1 X88.083 Y62.669 E84.5525 F3600
G0 X87.551 Y62.636 F7200
G1 X83.378 Y66.808 E84.7488 F3600
G0 X82.846 Y66.775 F7200
G1 X87.019 Y62.602 E84.9451 F3600
G0 X86.487 Y62.568 F7200
G1 X82.314 Y66.741 E85.1414 F3600
G0 X81.782 Y66.707 F7200
G1 X85.955 Y62.534 E85.3376 F3600
G0 X85.423 Y62.501 F7200
G1 X81.250 Y66.673 E85.5339 F3600
G0 X80.718 Y66.640 F7200
G1 X84.891 Y62.467 E85.7302 F3600
G0 X84.359 Y62.433 F7200
G1 X80.186 Y66.606 E85.9265 F3600
G0 X79.655 Y66.572 F7200
G1 X83.827 Y62.399 E86.1228 F3600
G0 X83.296 Y62.365 F7200
G1 X79.123 Y66.538 E86.3191 F3600
G0 X78.591 Y66.505 F7200
G1 X82.764 Y62.332 E86.5153 F3600
G0 X82.232 Y62.298 F7200
G1 X78.059 Y66.471 E86.7116 F3600
G0 X77.527 Y66.437 F7200
G1 X81.700 Y62.264 E86.9079 F3600
G0 X81.168 Y62.230 F7200
G1 X76.995 Y66.403 E87.1042 F3600
G0 X76.463 Y66.369 F7200
G1 X80.636 Y62.197 E87.3005 F3600
G0 X80.104 Y62.163 F7200
G1 X75.931 Y66.336 E87.4967 F3600
G0 X75.399 Y66.302 F7200
G1 X79.572 Y62.129 E87.6930 F3600
G0 X79.040 Y62.095 F7200
G1 X74.867 Y66.268 E87.8893 F3600
G0 X74.335 Y66.234 F7200
G1 X78.508 Y62.061 E88.0856 F3600
G0 X77.976 Y62.028 F7200
G1 X73.804 Y66.201 E88.2819 F3600
G0 X73.272 Y66.167 F7200
G1 X77.445 Y61.994 E88.4782 F3600
G0 X76.913 Y61.960 F7200
G1 X72.740 Y66.133 E88.6744 F3600
G0 X72.208 Y66.099 F7200
G1 X76.381 Y61.926 E88.8707 F3600
G0 X75.849 Y61.893 F7200
G1 X71.676 Y66.066 E89.0670 F3600
G0 X71.144 Y66.032 F7200
G1 X75.317 Y61.859 E89.2633 F3600
G0 X74.785 Y61.825 F7200
G1 X70.612 Y65.998 E89.4596 F3600
G0 X70.080 Y65.964 F7200
G1 X74.253 Y61.791 E89.6558 F3600
G0 X73.721 Y61.758 F7200
G1 X69.548 Y65.930 E89.8521 F3600
G0 X69.016 Y65.897 F7200
G1 X73.189 Y61.724 E90.0484 F3600
G0 X72.657 Y61.690 F7200
G1 X68.484 Y65.863 E90.2447 F3600
G0 X68.014 Y65.768 F7200
G1 X72.125 Y61.656 E90.4381 F3600
G0 X71.593 Y61.622 F7200
G1 X68.052 Y65.163 E90.6046 F3600
G0 X68.091 Y64.559 F7200
G1 X71.062 Y61.589 E90.7444 F3600
G0 X70.530 Y61.555 F7200
G1 X68.129 Y63.955 E90.8573 F3600
G0 X68.167 Y63.351 F7200
G1 X69.998 Y61.521 E90.9434 F3600
G0 X69.466 Y61.487 F7200
G1 X68.206 Y62.747 E91.0026 F3600
G0 X68.244 Y62.143 F7200
G1 X68.934 Y61.454 E91.0351 F3600
G0 X77.295 Y66.783 F7200
G0 X92.204 Y67.730
G0 X95.545 Y68.857
G0 X97.929 Y71.564
G0 X98.625 Y75.022
G0 X98.298 Y80.170
G0 X98.298 Y80.170
G0 X98.656 Y80.398
G0 X98.645 Y80.391
G1 X110.178 Y68.858 E91.5776 F3600
; ------------------------------------
; Layer #2
; ------------------------------------
M106 S0 ;turn off fan
G21 ; mm
G90 ; abs
G92 E0 ;reset extr
;segType:HShell
G0 F4800 E-1.0000
G0 F1200 Z0.600
G0 X110.137 Y69.511 F7200
G0 F4800 E0.0000
G1 X104.326 Y63.701 E0.2733 F3600
G0 X103.722 Y63.662 F7200
G1 X110.103 Y70.043 E0.5735 F3600
;segType:Perimeter
G0 X110.907 Y69.377 F7200
G1 X109.736 Y87.822 E1.1882 F2160
G1 X97.461 Y87.043 E1.5972
G1 X98.223 Y75.050 E1.9970
G1 X97.558 Y71.748 E2.1090
G1 X95.316 Y69.201 E2.2218
G1 X92.126 Y68.126 E2.3338
G1 X67.203 Y66.543 E3.1644
G1 X67.580 Y60.606 E3.3623
G1 X119.149 Y63.880 E5.0809
G1 X119.272 Y63.898 E5.0851
G1 X121.528 Y66.459 E5.1986
G1 X119.117 Y104.425 E6.4639
G1 X119.392 Y105.792 E6.5103
G1 X120.332 Y106.860 E6.5576
G1 X121.653 Y107.305 E6.6039
G1 X127.817 Y107.697 E6.8094
G1 X125.751 Y140.250 E7.8943
G1 X113.476 Y139.471 E8.3034
G1 X117.882 Y70.077 E10.6161
G1 X117.806 Y69.755 E10.6271
G1 X110.971 Y69.321 E10.8549
G0 X110.971 Y69.321 F7200
G0 X110.911 Y69.318
G0 X110.902 Y69.461
G0 X110.902 Y69.461
G0 X110.436 Y70.402
;segType:Loop
G0 X110.442 Y70.390
G1 X109.362 Y87.398 E11.4217 F3600
G1 X97.886 Y86.670 E11.8042
G1 X98.625 Y75.022 E12.1923
G1 X97.929 Y71.564 E12.3096
G1 X95.545 Y68.857 E12.4296
G1 X92.204 Y67.730 E12.5469
G1 X67.628 Y66.169 E13.3660
G1 X67.954 Y61.030 E13.5372
G1 X119.019 Y64.273 E15.2391
G1 X119.172 Y64.389 E15.2455
G1 X121.118 Y66.599 E15.3434
G1 X118.714 Y104.452 E16.6050
G1 X119.021 Y105.976 E16.6567
G1 X120.102 Y107.204 E16.7111
G1 X121.575 Y107.701 E16.7628
G1 X127.393 Y108.070 E16.9567
G1 X125.377 Y139.826 E18.0150
G1 X113.901 Y139.097 E18.3975
G1 X118.285 Y70.043 E20.6988
G1 X118.127 Y69.375 E20.7217
G1 X110.537 Y68.893 E20.9746
G1 X110.455 Y70.190 E21.0179
;segType:HShell
G0 X110.069 Y70.575 F7200
G1 X103.118 Y63.624 E21.3448 F3600
G0 X102.514 Y63.586 F7200
G1 X110.035 Y71.107 E21.6986 F3600
G0 X110.002 Y71.639 F7200
G1 X101.910 Y63.547 E22.0792 F3600
G0 X101.306 Y63.509 F7200
G1 X109.968 Y72.171 E22.4867 F3600
G0 X109.934 Y72.703 F7200
G1 X100.702 Y63.471 E22.9209 F3600
G0 X100.098 Y63.432 F7200
G1 X109.900 Y73.235 E23.3820 F3600
G0 X109.867 Y73.767 F7200
G1 X99.494 Y63.394 E23.8699 F3600
G0 X98.890 Y63.356 F7200
G1 X109.833 Y74.299 E24.3846 F3600
G0 X109.799 Y74.831 F7200
G1 X98.286 Y63.317 E24.9262 F3600
G0 X97.682 Y63.279 F7200
G1 X109.765 Y75.362 E25.4945 F3600
G0 X109.732 Y75.894 F7200
G1 X97.078 Y63.241 E26.0897 F3600
G0 X96.474 Y63.202 F7200
G1 X109.698 Y76.426 E26.7118 F3600
G0 X109.664 Y76.958 F7200
G1 X95.870 Y63.164 E27.3606 F3600
G0 X95.266 Y63.125 F7200
G1 X109.630 Y77.490 E28.0363 F3600
G0 X109.596 Y78.022 F7200
G1 X94.662 Y63.087 E28.7388 F3600
G0 X94.058 Y63.049 F7200
G1 X109.563 Y78.554 E29.4681 F3600
G0 X109.529 Y79.086 F7200
G1 X93.453 Y63.010 E30.2242 F3600
G0 X92.849 Y62.972 F7200
G1 X109.495 Y79.618 E31.0072 F3600
G0 X109.461 Y80.150 F7200
G1 X92.245 Y62.934 E31.8170 F3600
G0 X91.641 Y62.895 F7200
G1 X109.428 Y80.682 E32.6536 F3600
G0 X109.394 Y81.213 F7200
G1 X91.037 Y62.857 E33.5170 F3600
G0 X90.433 Y62.819 F7200
G1 X109.360 Y81.745 E34.4072 F3600
G0 X109.326 Y82.277 F7200
G1 X96.907 Y69.858 E34.9914 F3600
G0 X95.516 Y68.467 F7200
G1 X89.829 Y62.780 E35.2589 F3600
G0 X89.225 Y62.742 F7200
G1 X94.662 Y68.179 E35.5146 F3600
G0 X93.808 Y67.891 F7200
G1 X88.621 Y62.704 E35.7586 F3600
G0 X88.017 Y62.665 F7200
G1 X92.955 Y67.603 E35.9909 F3600
G0 X92.152 Y67.366 F7200
G1 X87.413 Y62.627 E36.2138 F3600
G0 X86.809 Y62.589 F7200
G1 X91.548 Y67.327 E36.4367 F3600
G0 X90.944 Y67.289 F7200
G1 X86.205 Y62.550 E36.6596 F3600
G0 X85.601 Y62.512 F7200
G1 X90.340 Y67.251 E36.8825 F3600
G0 X89.736 Y67.212 F7200
G1 X84.997 Y62.473 E37.1054 F3600
G0 X84.393 Y62.435 F7200
G1 X89.132 Y67.174 E37.3282 F3600
G0 X88.528 Y67.136 F7200
G1 X83.789 Y62.397 E37.5511 F3600
G0 X83.185 Y62.358 F7200
G1 X87.924 Y67.097 E37.7740 F3600
G0 X87.320 Y67.059 F7200
G1 X82.581 Y62.320 E37.9969 F3600
G0 X81.977 Y62.282 F7200
G1 X86.715 Y67.020 E38.2198 F3600
G0 X86.111 Y66.982 F7200
G1 X81.373 Y62.243 E38.4427 F3600
G0 X80.769 Y62.205 F7200
G1 X85.507 Y66.944 E38.6656 F3600
G0 X84.903 Y66.905 F7200
G1 X80.165 Y62.167 E38.8885 F3600
G0 X79.561 Y62.128 F7200
G1 X84.299 Y66.867 E39.1114 F3600
G0 X83.695 Y66.829 F7200
G1 X78.957 Y62.090 E39.3343 F3600
G0 X78.353 Y62.052 F7200
G1 X83.091 Y66.790 E39.5572 F3600
G0 X82.487 Y66.752 F7200
G1 X77.749 Y62.013 E39.7801 F3600
G0 X77.144 Y61.975 F7200
G1 X81.883 Y66.714 E40.0030 F3600
G0 X81.279 Y66.675 F7200
G1 X76.540 Y61.937 E40.2259 F3600
G0 X75.936 Y61.898 F7200
G1 X80.675 Y66.637 E40.4488 F3600
G0 X80.071 Y66.599 F7200
G1 X75.332 Y61.860 E40.6717 F3600
G0 X74.728 Y61.822 F7200
G1 X79.467 Y66.560 E40.8946 F3600
G0 X78.863 Y66.522 F7200
G1 X74.124 Y61.783 E41.1175 F3600
G0 X73.520 Y61.745 F7200
G1 X78.259 Y66.484 E41.3404 F3600
G0 X77.655 Y66.445 F7200
G1 X72.916 Y61.706 E41.5633 F3600
G0 X72.312 Y61.668 F7200
G1 X77.051 Y66.407 E41.7862 F3600
G0 X76.447 Y66.368 F7200
G1 X71.708 Y61.630 E42.0091 F3600
G0 X71.104 Y61.591 F7200
G1 X75.843 Y66.330 E42.2320 F3600
G0 X75.239 Y66.292 F7200
G1 X70.500 Y61.553 E42.4549 F3600
G0 X69.896 Y61.515 F7200
G1 X74.635 Y66.253 E42.6778 F3600
G0 X74.031 Y66.215 F7200
G1 X69.292 Y61.476 E42.9007 F3600
G0 X68.688 Y61.438 F7200
G1 X73.427 Y66.177 E43.1236 F3600
G0 X72.823 Y66.138 F7200
G1 X68.279 Y61.595 E43.3373 F3600
G0 X68.245 Y62.127 F7200
G1 X72.219 Y66.100 E43.5242 F3600
G0 X71.615 Y66.062 F7200
G1 X68.211 Y62.659 E43.6843 F3600
G0 X68.178 Y63.190 F7200
G1 X71.011 Y66.023 E43.8175 F3600
G0 X70.406 Y65.985 F7200
G1 X68.144 Y63.722 E43.9239 F3600
G0 X68.110 Y64.254 F7200
G1 X69.802 Y65.947 E44.0035 F3600
G0 X69.198 Y65.908 F7200
G1 X68.076 Y64.786 E44.0563 F3600
G0 X68.043 Y65.318 F7200
G1 X68.594 Y65.870 E44.0823 F3600
G0 X69.179 Y66.268 F7200
G0 X92.204 Y67.730
G0 X95.545 Y68.857
G0 X97.929 Y71.564
G0 X98.625 Y75.022
G0 X97.938 Y85.841
G0 X97.938 Y85.841
G0 X98.712 Y86.368
G0 X98.702 Y86.360
G1 X98.292 Y85.951 E44.1015 F3600
G0 X98.326 Y85.419 F7200
G1 X99.306 Y86.399 E44.1476 F3600
G0 X99.910 Y86.437 F7200
G1 X98.360 Y84.887 E44.2205 F3600
G0 X98.394 Y84.355 F7200
G1 X100.514 Y86.475 E44.3202 F3600
G0 X101.118 Y86.514 F7200
G1 X98.427 Y83.823 E44.4468 F3600
G0 X98.461 Y83.292 F7200
G1 X101.722 Y86.552 E44.6001 F3600
G0 X102.326 Y86.590 F7200
G1 X98.495 Y82.760 E44.7803 F3600
G0 X98.529 Y82.228 F7200
G1 X102.930 Y86.629 E44.9873 F3600
G0 X103.534 Y86.667 F7200
G1 X98.562 Y81.696 E45.2212 F3600
G0 X98.596 Y81.164 F7200
G1 X104.138 Y86.705 E45.4818 F3600
G0 X104.742 Y86.744 F7200
G1 X98.630 Y80.632 E45.7693 F3600
G0 X98.664 Y80.100 F7200
G1 X105.346 Y86.782 E46.0836 F3600
G0 X105.950 Y86.820 F7200
G1 X98.697 Y79.568 E46.4247 F3600
G0 X98.731 Y79.036 F7200
G1 X106.554 Y86.859 E46.7927 F3600
G0 X107.158 Y86.897 F7200
G1 X98.765 Y78.504 E47.1874 F3600
G0 X98.799 Y77.972 F7200
G1 X107.762 Y86.935 E47.6090 F3600
G0 X108.366 Y86.974 F7200
G1 X98.833 Y77.440 E48.0575 F3600
G0 X98.866 Y76.908 F7200
G1 X108.970 Y87.012 E48.5327 F3600
G0 X109.056 Y86.533 F7200
G1 X98.900 Y76.377 E49.0104 F3600
G0 X98.934 Y75.845 F7200
G1 X109.090 Y86.001 E49.4881 F3600
G0 X109.124 Y85.469 F7200
G1 X98.968 Y75.313 E49.9658 F3600
G0 X98.929 Y74.709 F7200
G1 X109.157 Y84.937 E50.4469 F3600
G0 X109.191 Y84.405 F7200
G1 X98.787 Y74.001 E50.9363 F3600
G0 X98.645 Y73.293 F7200
G1 X109.225 Y83.873 E51.4340 F3600
G0 X109.259 Y83.341 F7200
G1 X98.502 Y72.584 E51.9399 F3600
G0 X98.360 Y71.876 F7200
G1 X109.292 Y82.809 E52.4542 F3600
G0 X109.617 Y83.387 F7200
G0 X110.537 Y68.893
G0 X118.127 Y69.375
G0 X118.285 Y70.043
G0 X116.643 Y95.902
G0 X116.643 Y95.902
G0 X118.992 Y100.086
G0 X118.992 Y100.086
G0 X118.714 Y104.452
G0 X119.021 Y105.976
G0 X120.102 Y107.204
G0 X121.575 Y107.701
G0 X123.330 Y107.813
G0 X123.330 Y107.813
G0 X126.677 Y113.775
G0 X126.671 Y113.764
G1 X120.689 Y107.783 E52.7355 F3600
G0 X121.532 Y108.059 F7200
G1 X126.704 Y113.232 E52.9788 F3600
G0 X126.738 Y112.700 F7200
G1 X122.136 Y108.098 E53.1953 F3600
G0 X122.740 Y108.136 F7200
G1 X126.772 Y112.168 E53.3849 F3600
G0 X126.806 Y111.636 F7200
G1 X123.344 Y108.174 E53.5477 F3600
G0 X123.948 Y108.213 F7200
G1 X126.839 Y111.104 E53.6838 F3600
G0 X126.873 Y110.572 F7200
G1 X124.552 Y108.251 E53.7929 F3600
G0 X125.156 Y108.289 F7200
G1 X126.907 Y110.040 E53.8753 F3600
G0 X126.941 Y109.508 F7200
G1 X125.760 Y108.328 E53.9308 F3600
G0 X126.364 Y108.366 F7200
G1 X126.975 Y108.977 E53.9595 F3600
G0 X114.940 Y138.802 F7200
G1 X114.319 Y138.182 E53.9887 F3600
G0 X114.353 Y137.650 F7200
G1 X115.544 Y138.841 E54.0447 F3600
G0 X116.148 Y138.879 F7200
G1 X114.387 Y137.118 E54.1275 F3600
G0 X114.421 Y136.586 F7200
G1 X116.752 Y138.917 E54.2372 F3600
G0 X117.356 Y138.956 F7200
G1 X114.455 Y136.055 E54.3736 F3600
G0 X114.488 Y135.523 F7200
G1 X117.960 Y138.994 E54.5369 F3600
G0 X118.564 Y139.032 F7200
G1 X114.522 Y134.991 E54.7270 F3600
G0 X114.556 Y134.459 F7200
G1 X119.168 Y139.071 E54.9440 F3600
G0 X119.772 Y139.109 F7200
G1 X114.590 Y133.927 E55.1877 F3600
G0 X114.623 Y133.395 F7200
G1 X120.376 Y139.147 E55.4583 F3600
G0 X120.980 Y139.186 F7200
G1 X114.657 Y132.863 E55.7557 F3600
G0 X114.691 Y132.331 F7200
G1 X121.584 Y139.224 E56.0799 F3600
G0 X122.188 Y139.263 F7200
G1 X114.725 Y131.799 E56.4310 F3600
G0 X114.759 Y131.267 F7200
G1 X122.792 Y139.301 E56.8088 F3600
G0 X123.396 Y139.339 F7200
G1 X114.792 Y130.735 E57.2135 F3600
G0 X114.826 Y130.204 F7200
G1 X124.000 Y139.378 E57.6450 F3600
G0 X124.604 Y139.416 F7200
G1 X114.860 Y129.672 E58.1034 F3600
G0 X114.894 Y129.140 F7200
G1 X125.049 Y139.296 E58.5811 F3600
G0 X125.083 Y138.764 F7200
G1 X114.927 Y128.608 E59.0588 F3600
G0 X114.961 Y128.076 F7200
G1 X125.117 Y138.232 E59.5365 F3600
G0 X125.151 Y137.700 F7200
G1 X114.995 Y127.544 E60.0142 F3600
G0 X115.029 Y127.012 F7200
G1 X125.185 Y137.168 E60.4919 F3600
G0 X125.218 Y136.636 F7200
G1 X115.062 Y126.480 E60.9696 F3600
G0 X115.096 Y125.948 F7200
G1 X125.252 Y136.104 E61.4473 F3600
G0 X125.286 Y135.572 F7200
G1 X115.130 Y125.416 E61.9250 F3600
G0 X115.164 Y124.884 F7200
G1 X125.320 Y135.040 E62.4027 F3600
G0 X125.353 Y134.508 F7200
G1 X115.198 Y124.352 E62.8804 F3600
G0 X115.231 Y123.821 F7200
G1 X125.387 Y133.976 E63.3581 F3600
G0 X125.421 Y133.445 F7200
G1 X115.265 Y123.289 E63.8358 F3600
G0 X115.299 Y122.757 F7200
G1 X125.455 Y132.913 E64.3135 F3600
G0 X125.489 Y132.381 F7200
G1 X115.333 Y122.225 E64.7912 F3600
G0 X115.366 Y121.693 F7200
G1 X125.522 Y131.849 E65.2689 F3600
G0 X125.556 Y131.317 F7200
G1 X115.400 Y121.161 E65.7466 F3600
G0 X115.434 Y120.629 F7200
G1 X125.590 Y130.785 E66.2243 F3600
G0 X125.624 Y130.253 F7200
G1 X115.468 Y120.097 E66.7020 F3600
G0 X115.502 Y119.565 F7200
G1 X125.657 Y129.721 E67.1797 F3600
G0 X125.691 Y129.189 F7200
G1 X115.535 Y119.033 E67.6574 F3600
G0 X115.569 Y118.501 F7200
G1 X125.725 Y128.657 E68.1351 F3600
G0 X125.759 Y128.125 F7200
G1 X115.603 Y117.970 E68.6128 F3600
G0 X115.637 Y117.438 F7200
G1 X125.792 Y127.593 E69.0905 F3600
G0 X125.826 Y127.062 F7200
G1 X115.670 Y116.906 E69.5682 F3600
G0 X115.704 Y116.374 F7200
G1 X125.860 Y126.530 E70.0459 F3600
G0 X125.894 Y125.998 F7200
G1 X115.738 Y115.842 E70.5236 F3600
G0 X115.772 Y115.310 F7200
G1 X125.928 Y125.466 E71.0013 F3600
G0 X125.961 Y124.934 F7200
G1 X115.805 Y114.778 E71.4790 F3600
G0 X115.839 Y114.246 F7200
G1 X125.995 Y124.402 E71.9567 F3600
G0 X126.029 Y123.870 F7200
G1 X115.873 Y113.714 E72.4344 F3600
G0 X115.907 Y113.182 F7200
G1 X126.063 Y123.338 E72.9121 F3600
G0 X126.096 Y122.806 F7200
G1 X115.941 Y112.650 E73.3898 F3600
G0 X115.974 Y112.118 F7200
G1 X126.130 Y122.274 E73.8675 F3600
G0 X126.164 Y121.742 F7200
G1 X116.008 Y111.587 E74.3452 F3600
G0 X116.042 Y111.055 F7200
G1 X126.198 Y121.211 E74.8229 F3600
G0 X126.232 Y120.679 F7200
G1 X116.076 Y110.523 E75.3006 F3600
G0 X116.109 Y109.991 F7200
G1 X126.265 Y120.147 E75.7783 F3600
G0 X126.299 Y119.615 F7200
G1 X116.143 Y109.459 E76.2560 F3600
G0 X116.177 Y108.927 F7200
G1 X126.333 Y119.083 E76.7337 F3600
G0 X126.367 Y118.551 F7200
G1 X116.211 Y108.395 E77.2114 F3600
G0 X116.245 Y107.863 F7200
G1 X126.400 Y118.019 E77.6891 F3600
G0 X126.434 Y117.487 F7200
G1 X116.278 Y107.331 E78.1668 F3600
G0 X116.312 Y106.799 F7200
G1 X126.468 Y116.955 E78.6445 F3600
G0 X126.502 Y116.423 F7200
G1 X116.346 Y106.267 E79.1222 F3600
G0 X116.380 Y105.736 F7200
G1 X126.535 Y115.891 E79.5999 F3600
G0 X126.569 Y115.359 F7200
G1 X116.413 Y105.204 E80.0776 F3600
G0 X116.447 Y104.672 F7200
G1 X126.603 Y114.828 E80.5553 F3600
G0 X126.637 Y114.296 F7200
G1 X116.481 Y104.140 E81.0330 F3600
G0 X116.515 Y103.608 F7200
G1 X118.596 Y105.689 E81.1308 F3600
G0 X118.453 Y104.981 F7200
G1 X116.548 Y103.076 E81.2204 F3600
G0 X116.582 Y102.544 F7200
G1 X118.362 Y104.323 E81.3041 F3600
G0 X118.395 Y103.792 F7200
G1 X116.616 Y102.012 E81.3878 F3600
G0 X116.650 Y101.480 F7200
G1 X118.429 Y103.260 E81.4715 F3600
G0 X118.463 Y102.728 F7200
G1 X116.684 Y100.948 E81.5552 F3600
G0 X116.717 Y100.416 F7200
G1 X118.497 Y102.196 E81.6389 F3600
G0 X118.531 Y101.664 F7200
G1 X116.751 Y99.885 E81.7226 F3600
G0 X116.785 Y99.353 F7200
G1 X118.564 Y101.132 E81.8063 F3600
G0 X118.598 Y100.600 F7200
G1 X116.819 Y98.821 E81.8900 F3600
G0 X116.852 Y98.289 F7200
G1 X118.632 Y100.068 E81.9737 F3600
G0 X118.666 Y99.536 F7200
G1 X116.886 Y97.757 E82.0574 F3600
G0 X116.920 Y97.225 F7200
G1 X118.699 Y99.004 E82.1411 F3600
G0 X118.733 Y98.472 F7200
G1 X116.954 Y96.693 E82.2248 F3600
G0 X116.988 Y96.161 F7200
G1 X118.767 Y97.941 E82.3085 F3600
G0 X118.801 Y97.409 F7200
G1 X117.021 Y95.629 E82.3922 F3600
G0 X117.055 Y95.097 F7200
G1 X118.834 Y96.877 E82.4758 F3600
G0 X118.868 Y96.345 F7200
G1 X117.089 Y94.565 E82.5595 F3600
G0 X117.123 Y94.033 F7200
G1 X118.902 Y95.813 E82.6432 F3600
G0 X118.936 Y95.281 F7200
G1 X117.156 Y93.502 E82.7269 F3600
G0 X117.190 Y92.970 F7200
G1 X118.970 Y94.749 E82.8106 F3600
G0 X119.003 Y94.217 F7200
G1 X117.224 Y92.438 E82.8943 F3600
G0 X117.258 Y91.906 F7200
G1 X119.037 Y93.685 E82.9780 F3600
G0 X119.071 Y93.153 F7200
G1 X117.291 Y91.374 E83.0617 F3600
G0 X117.325 Y90.842 F7200
G1 X119.105 Y92.621 E83.1454 F3600
G0 X119.138 Y92.089 F7200
G1 X117.359 Y90.310 E83.2291 F3600
G0 X117.393 Y89.778 F7200
G1 X119.172 Y91.558 E83.3128 F3600
G0 X119.206 Y91.026 F7200
G1 X117.427 Y89.246 E83.3965 F3600
G0 X117.460 Y88.714 F7200
G1 X119.240 Y90.494 E83.4802 F3600
G0 X119.274 Y89.962 F7200
G1 X117.494 Y88.182 E83.5639 F3600
G0 X117.528 Y87.651 F7200
G1 X119.307 Y89.430 E83.6476 F3600
G0 X119.341 Y88.898 F7200
G1 X117.562 Y87.119 E83.7313 F3600
G0 X117.595 Y86.587 F7200
G1 X119.375 Y88.366 E83.8150 F3600
G0 X119.409 Y87.834 F7200
G1 X117.629 Y86.055 E83.8987 F3600
G0 X117.663 Y85.523 F7200
G1 X119.442 Y87.302 E83.9823 F3600
G0 X119.476 Y86.770 F7200
G1 X117.697 Y84.991 E84.0660 F3600
G0 X117.731 Y84.459 F7200
G1 X119.510 Y86.238 E84.1497 F3600
G0 X119.544 Y85.707 F7200
G1 X117.764 Y83.927 E84.2334 F3600
G0 X117.798 Y83.395 F7200
G1 X119.577 Y85.175 E84.3171 F3600
G0 X119.611 Y84.643 F7200
G1 X117.832 Y82.863 E84.4008 F3600
G0 X117.866 Y82.331 F7200
G1 X119.645 Y84.111 E84.4845 F3600
G0 X119.679 Y83.579 F7200
G1 X117.899 Y81.799 E84.5682 F3600
G0 X117.933 Y81.268 F7200
G1 X119.713 Y83.047 E84.6519 F3600
G0 X119.746 Y82.515 F7200
G1 X117.967 Y80.736 E84.7356 F3600
G0 X118.001 Y80.204 F7200
G1 X119.780 Y81.983 E84.8193 F3600
G0 X119.814 Y81.451 F7200
G1 X118.034 Y79.672 E84.9030 F3600
G0 X118.068 Y79.140 F7200
G1 X119.848 Y80.919 E84.9867 F3600
G0 X119.881 Y80.387 F7200
G1 X118.102 Y78.608 E85.0704 F3600
G0 X118.136 Y78.076 F7200
G1 X119.915 Y79.855 E85.1541 F3600
G0 X119.949 Y79.324 F7200
G1 X118.170 Y77.544 E85.2378 F3600
G0 X118.203 Y77.012 F7200
G1 X119.983 Y78.792 E85.3215 F3600
G0 X120.017 Y78.260 F7200
G1 X118.237 Y76.480 E85.4052 F3600
G0 X118.271 Y75.948 F7200
G1 X120.050 Y77.728 E85.4888 F3600
G0 X120.084 Y77.196 F7200
G1 X118.305 Y75.417 E85.5725 F3600
G0 X118.338 Y74.885 F7200
G1 X120.118 Y76.664 E85.6562 F3600
G0 X120.152 Y76.132 F7200
G1 X118.372 Y74.353 E85.7399 F3600
G0 X118.406 Y73.821 F7200
G1 X120.185 Y75.600 E85.8236 F3600
G0 X120.219 Y75.068 F7200
G1 X118.440 Y73.289 E85.9073 F3600
G0 X118.474 Y72.757 F7200
G1 X120.253 Y74.536 E85.9910 F3600
G0 X120.287 Y74.004 F7200
G1 X118.507 Y72.225 E86.0747 F3600
G0 X118.541 Y71.693 F7200
G1 X120.320 Y73.473 E86.1584 F3600
G0 X120.354 Y72.941 F7200
G1 X118.575 Y71.161 E86.2421 F3600
G0 X118.609 Y70.629 F7200
G1 X120.388 Y72.409 E86.3258 F3600
G0 X120.422 Y71.877 F7200
G1 X118.642 Y70.097 E86.4095 F3600
G0 X118.501 Y69.390 F7200
G1 X120.456 Y71.345 E86.5014 F3600
G0 X119.439 Y65.237 F7200
G1 X118.823 Y64.621 E86.5304 F3600
G0 X118.219 Y64.583 F7200
G1 X120.726 Y67.090 E86.6483 F3600
G0 X120.692 Y67.622 F7200
G1 X117.615 Y64.544 E86.7931 F3600
G0 X117.011 Y64.506 F7200
G1 X120.658 Y68.153 E86.9646 F3600
G0 X120.624 Y68.685 F7200
G1 X116.407 Y64.468 E87.1630 F3600
G0 X115.803 Y64.429 F7200
G1 X120.591 Y69.217 E87.3882 F3600
G0 X120.557 Y69.749 F7200
G1 X115.199 Y64.391 E87.6402 F3600
G0 X114.595 Y64.353 F7200
G1 X120.523 Y70.281 E87.9191 F3600
G0 X120.489 Y70.813 F7200
G1 X113.991 Y64.314 E88.2247 F3600
G0 X113.387 Y64.276 F7200
G1 X118.125 Y69.014 E88.4476 F3600
G0 X117.521 Y68.976 F7200
G1 X112.783 Y64.238 E88.6705 F3600
G0 X112.179 Y64.199 F7200
G1 X116.917 Y68.937 E88.8933 F3600
G0 X116.313 Y68.899 F7200
G1 X111.575 Y64.161 E89.1162 F3600
G0 X110.971 Y64.123 F7200
G1 X115.709 Y68.861 E89.3391 F3600
G0 X115.104 Y68.822 F7200
G1 X110.367 Y64.084 E89.5619 F3600
G0 X109.763 Y64.046 F7200
G1 X114.500 Y68.784 E89.7848 F3600
G0 X113.896 Y68.746 F7200
G1 X109.158 Y64.008 E90.0076 F3600
G0 X108.554 Y63.969 F7200
G1 X113.292 Y68.707 E90.2305 F3600
G0 X112.688 Y68.669 F7200
G1 X107.950 Y63.931 E90.4534 F3600
G0 X107.346 Y63.893 F7200
G1 X112.084 Y68.630 E90.6762 F3600
G0 X111.480 Y68.592 F7200
G1 X106.742 Y63.854 E90.8991 F3600
G0 X106.138 Y63.816 F7200
G1 X110.876 Y68.554 E91.1220 F3600
G0 X110.272 Y68.515 F7200
G1 X105.534 Y63.777 E91.3448 F3600
G0 X104.930 Y63.739 F7200
G1 X110.171 Y68.979 E91.5913 F3600
; ------------------------------------
; Layer #3
; ------------------------------------
M106 S255 ;set fan speed
G21 ; mm
G90 ; abs
G92 E0 ;reset extr
;segType:HShell
G0 F4800 E-1.0000
G0 F1200 Z0.800
G0 X111.038 Y68.564 F7200
G0 F4800 E0.0000
G1 X115.210 Y64.392 E0.1962 F3600
G0 X115.742 Y64.426 F7200
G1 X111.570 Y68.598 E0.3925 F3600
;segType:Perimeter
G0 X110.958 Y68.579 F7200
G1 X110.907 Y69.377 E0.4191 F2160
G1 X109.736 Y87.822 E1.0338
G1 X97.461 Y87.043 E1.4429
G1 X98.223 Y75.049 E1.8426
G1 X97.558 Y71.748 E1.9546
G1 X95.316 Y69.201 E2.0675
G1 X92.126 Y68.126 E2.1794
G1 X67.203 Y66.543 E3.0101
G1 X67.580 Y60.606 E3.2079
G1 X119.071 Y63.875 E4.9240
G1 X119.278 Y63.905 E4.9309
G1 X121.528 Y66.458 E5.0441
G1 X119.117 Y104.425 E6.3094
G1 X119.392 Y105.792 E6.3558
G1 X120.332 Y106.860 E6.4031
G1 X121.653 Y107.305 E6.4495
G1 X127.817 Y107.697 E6.6549
G1 X125.751 Y140.250 E7.7398
G1 X113.476 Y139.471 E8.1489
G1 X117.870 Y70.233 E10.4564
G1 X117.878 Y70.119 E10.4602
G1 X117.901 Y69.761 E10.4721
G1 X110.971 Y69.321 E10.7031
G0 X110.971 Y69.321 F7200
G0 X110.911 Y69.318
G0 X110.902 Y69.461
G0 X110.902 Y69.461
G0 X110.436 Y70.402
;segType:Loop
G0 X110.442 Y70.390
G1 X109.362 Y87.398 E11.2699 F3600
G1 X97.886 Y86.669 E11.6524
G1 X98.625 Y75.022 E12.0406
G1 X97.929 Y71.564 E12.1579
G1 X95.545 Y68.857 E12.2779
G1 X92.204 Y67.730 E12.3952
G1 X67.628 Y66.169 E13.2142
G1 X67.954 Y61.030 E13.3855
G1 X119.019 Y64.273 E15.0873
G1 X119.172 Y64.390 E15.0937
G1 X121.118 Y66.598 E15.1916
G1 X118.714 Y104.452 E16.4532
G1 X119.021 Y105.976 E16.5049
G1 X120.102 Y107.204 E16.5593
G1 X121.576 Y107.701 E16.6110
G1 X127.392 Y108.070 E16.8049
G1 X125.377 Y139.826 E17.8632
G1 X113.901 Y139.097 E18.2457
G1 X118.271 Y70.233 E20.5407
G1 X118.327 Y69.388 E20.5689
G1 X110.537 Y68.893 E20.8285
G1 X110.455 Y70.190 E20.8718
;segType:HShell
G0 X110.506 Y68.530 F7200
G1 X114.678 Y64.358 E21.0680 F3600
G0 X114.146 Y64.324 F7200
G1 X98.684 Y79.787 E21.7953 F3600
G0 X98.722 Y79.183 F7200
G1 X113.615 Y64.290 E22.4958 F3600
G0 X113.083 Y64.257 F7200
G1 X98.760 Y78.579 E23.1695 F3600
G0 X98.799 Y77.975 F7200
G1 X112.551 Y64.223 E23.8164 F3600
G0 X112.019 Y64.189 F7200
G1 X98.837 Y77.371 E24.4364 F3600
G0 X98.875 Y76.767 F7200
G1 X111.487 Y64.155 E25.0296 F3600
G0 X110.955 Y64.122 F7200
G1 X98.914 Y76.163 E25.5960 F3600
G0 X98.952 Y75.559 F7200
G1 X110.423 Y64.088 E26.1356 F3600
G0 X109.891 Y64.054 F7200
G1 X98.981 Y74.964 E26.6488 F3600
G0 X98.886 Y74.493 F7200
G1 X109.359 Y64.020 E27.1414 F3600
G0 X108.827 Y63.987 F7200
G1 X98.791 Y74.022 E27.6135 F3600
G0 X98.697 Y73.552 F7200
G1 X108.295 Y63.953 E28.0649 F3600
G0 X107.764 Y63.919 F7200
G1 X98.602 Y73.081 E28.4959 F3600
G0 X98.507 Y72.610 F7200
G1 X107.232 Y63.885 E28.9063 F3600
G0 X106.700 Y63.851 F7200
G1 X98.412 Y72.139 E29.2961 F3600
G0 X98.318 Y71.668 F7200
G1 X106.168 Y63.818 E29.6653 F3600
G0 X105.636 Y63.784 F7200
G1 X98.150 Y71.270 E30.0174 F3600
G0 X97.885 Y70.969 F7200
G1 X105.104 Y63.750 E30.3570 F3600
G0 X104.572 Y63.716 F7200
G1 X97.620 Y70.668 E30.6840 F3600
G0 X97.355 Y70.367 F7200
G1 X104.040 Y63.683 E30.9984 F3600
G0 X103.508 Y63.649 F7200
G1 X97.090 Y70.067 E31.3003 F3600
G0 X96.826 Y69.766 F7200
G1 X102.976 Y63.615 E31.5896 F3600
G0 X102.444 Y63.581 F7200
G1 X96.561 Y69.465 E31.8663 F3600
G0 X96.296 Y69.164 F7200
G1 X101.912 Y63.547 E32.1305 F3600
G0 X101.381 Y63.514 F7200
G1 X96.031 Y68.863 E32.3821 F3600
G0 X95.766 Y68.563 F7200
G1 X100.849 Y63.480 E32.6212 F3600
G0 X100.317 Y63.446 F7200
G1 X95.352 Y68.411 E32.8548 F3600
G0 X94.929 Y68.269 F7200
G1 X99.785 Y63.412 E33.0832 F3600
G0 X99.253 Y63.379 F7200
G1 X94.506 Y68.126 E33.3065 F3600
G0 X94.083 Y67.983 F7200
G1 X98.721 Y63.345 E33.5247 F3600
G0 X98.189 Y63.311 F7200
G1 X93.660 Y67.841 E33.7377 F3600
G0 X93.237 Y67.698 F7200
G1 X97.657 Y63.277 E33.9457 F3600
G0 X97.125 Y63.243 F7200
G1 X92.813 Y67.555 E34.1485 F3600
G0 X92.390 Y67.413 F7200
G1 X96.593 Y63.210 E34.3462 F3600
G0 X96.061 Y63.176 F7200
G1 X91.889 Y67.349 E34.5424 F3600
G0 X91.357 Y67.315 F7200
G1 X95.530 Y63.142 E34.7387 F3600
G0 X94.998 Y63.108 F7200
G1 X90.825 Y67.281 E34.9350 F3600
G0 X90.293 Y67.248 F7200
G1 X94.466 Y63.075 E35.1313 F3600
G0 X93.934 Y63.041 F7200
G1 X89.761 Y67.214 E35.3276 F3600
G0 X89.229 Y67.180 F7200
G1 X93.402 Y63.007 E35.5239 F3600
G0 X92.870 Y62.973 F7200
G1 X88.697 Y67.146 E35.7202 F3600
G0 X88.165 Y67.112 F7200
G1 X92.338 Y62.940 E35.9164 F3600
G0 X91.806 Y62.906 F7200
G1 X87.633 Y67.079 E36.1127 F3600
G0 X87.101 Y67.045 F7200
G1 X91.274 Y62.872 E36.3090 F3600
G0 X90.742 Y62.838 F7200
G1 X86.569 Y67.011 E36.5053 F3600
G0 X86.037 Y66.977 F7200
G1 X90.210 Y62.804 E36.7016 F3600
G0 X89.679 Y62.771 F7200
G1 X85.506 Y66.944 E36.8979 F3600
G0 X84.974 Y66.910 F7200
G1 X89.147 Y62.737 E37.0942 F3600
G0 X88.615 Y62.703 F7200
G1 X84.442 Y66.876 E37.2904 F3600
G0 X83.910 Y66.842 F7200
G1 X88.083 Y62.669 E37.4867 F3600
G0 X87.551 Y62.636 F7200
G1 X83.378 Y66.809 E37.6830 F3600
G0 X82.846 Y66.775 F7200
G1 X87.019 Y62.602 E37.8793 F3600
G0 X86.487 Y62.568 F7200
G1 X82.314 Y66.741 E38.0756 F3600
G0 X81.782 Y66.707 F7200
G1 X85.955 Y62.534 E38.2719 F3600
G0 X85.423 Y62.500 F7200
G1 X81.250 Y66.673 E38.4682 F3600
G0 X80.718 Y66.640 F7200
G1 X84.891 Y62.467 E38.6644 F3600
G0 X84.359 Y62.433 F7200
G1 X80.186 Y66.606 E38.8607 F3600
G0 X79.655 Y66.572 F7200
G1 X83.828 Y62.399 E39.0570 F3600
G0 X83.296 Y62.365 F7200
G1 X79.123 Y66.538 E39.2533 F3600
G0 X78.591 Y66.505 F7200
G1 X82.764 Y62.332 E39.4496 F3600
G0 X82.232 Y62.298 F7200
G1 X78.059 Y66.471 E39.6459 F3600
G0 X77.527 Y66.437 F7200
G1 X81.700 Y62.264 E39.8421 F3600
G0 X81.168 Y62.230 F7200
G1 X76.995 Y66.403 E40.0384 F3600
G0 X76.463 Y66.369 F7200
G1 X80.636 Y62.196 E40.2347 F3600
G0 X80.104 Y62.163 F7200
G1 X75.931 Y66.336 E40.4310 F3600
G0 X75.399 Y66.302 F7200
G1 X79.572 Y62.129 E40.6273 F3600
G0 X79.040 Y62.095 F7200
G1 X74.867 Y66.268 E40.8236 F3600
G0 X74.335 Y66.234 F7200
G1 X78.508 Y62.061 E41.0199 F3600
G0 X77.976 Y62.028 F7200
G1 X73.803 Y66.201 E41.2161 F3600
G0 X73.272 Y66.167 F7200
G1 X77.445 Y61.994 E41.4124 F3600
G0 X76.913 Y61.960 F7200
G1 X72.740 Y66.133 E41.6087 F3600
G0 X72.208 Y66.099 F7200
G1 X76.381 Y61.926 E41.8050 F3600
G0 X75.849 Y61.893 F7200
G1 X71.676 Y66.066 E42.0013 F3600
G0 X71.144 Y66.032 F7200
G1 X75.317 Y61.859 E42.1976 F3600
G0 X74.785 Y61.825 F7200
G1 X70.612 Y65.998 E42.3939 F3600
G0 X70.080 Y65.964 F7200
G1 X74.253 Y61.791 E42.5901 F3600
G0 X73.721 Y61.757 F7200
G1 X69.548 Y65.930 E42.7864 F3600
G0 X69.016 Y65.897 F7200
G1 X73.189 Y61.724 E42.9827 F3600
G0 X72.657 Y61.690 F7200
G1 X68.484 Y65.863 E43.1790 F3600
G0 X68.014 Y65.768 F7200
G1 X72.125 Y61.656 E43.3724 F3600
G0 X71.594 Y61.622 F7200
G1 X68.052 Y65.163 E43.5389 F3600
G0 X68.091 Y64.559 F7200
G1 X71.062 Y61.589 E43.6787 F3600
G0 X70.530 Y61.555 F7200
G1 X68.129 Y63.955 E43.7916 F3600
G0 X68.167 Y63.351 F7200
G1 X69.998 Y61.521 E43.8777 F3600
G0 X69.466 Y61.487 F7200
G1 X68.206 Y62.747 E43.9370 F3600
G0 X68.244 Y62.143 F7200
G1 X68.934 Y61.454 E43.9694 F3600
G0 X77.296 Y66.783 F7200
G0 X92.204 Y67.730
G0 X95.545 Y68.857
G0 X97.929 Y71.564
G0 X98.625 Y75.022
G0 X98.298 Y80.170
G0 X98.298 Y80.170
G0 X98.656 Y80.398
G0 X98.645 Y80.391
G1 X110.178 Y68.858 E44.5119 F3600
G0 X110.140 Y69.462 F7200
G1 X98.607 Y80.995 E45.0544 F3600
G0 X98.569 Y81.599 F7200
G1 X110.102 Y70.066 E45.5969 F3600
G0 X110.063 Y70.670 F7200
G1 X98.530 Y82.203 E46.1394 F3600
G0 X98.492 Y82.807 F7200
G1 X110.025 Y71.274 E46.6818 F3600
G0 X109.987 Y71.878 F7200
G1 X98.453 Y83.411 E47.2243 F3600
G0 X98.415 Y84.015 F7200
G1 X109.948 Y72.482 E47.7668 F3600
G0 X109.910 Y73.086 F7200
G1 X98.377 Y84.619 E48.3093 F3600
G0 X98.338 Y85.223 F7200
G1 X109.872 Y73.690 E48.8518 F3600
G0 X109.833 Y74.294 F7200
G1 X98.300 Y85.827 E49.3942 F3600
G0 X98.355 Y86.338 F7200
G1 X109.795 Y74.898 E49.9323 F3600
G0 X109.756 Y75.502 F7200
G1 X98.887 Y86.372 E50.4436 F3600
G0 X99.419 Y86.406 F7200
G1 X109.718 Y76.107 E50.9280 F3600
G0 X109.680 Y76.711 F7200
G1 X99.951 Y86.440 E51.3857 F3600
G0 X100.483 Y86.473 F7200
G1 X109.641 Y77.315 E51.8165 F3600
G0 X109.603 Y77.919 F7200
G1 X101.015 Y86.507 E52.2204 F3600
G0 X101.546 Y86.541 F7200
G1 X109.565 Y78.523 E52.5976 F3600
G0 X109.526 Y79.127 F7200
G1 X102.078 Y86.575 E52.9479 F3600
G0 X102.610 Y86.608 F7200
G1 X109.488 Y79.731 E53.2714 F3600
G0 X109.450 Y80.335 F7200
G1 X103.142 Y86.642 E53.5681 F3600
G0 X103.674 Y86.676 F7200
G1 X109.411 Y80.939 E53.8379 F3600
G0 X109.373 Y81.543 F7200
G1 X104.206 Y86.710 E54.0810 F3600
G0 X104.738 Y86.743 F7200
G1 X109.335 Y82.147 E54.2972 F3600
G0 X109.296 Y82.751 F7200
G1 X105.270 Y86.777 E54.4866 F3600
G0 X105.802 Y86.811 F7200
G1 X109.258 Y83.355 E54.6491 F3600
G0 X109.219 Y83.959 F7200
G1 X106.334 Y86.845 E54.7849 F3600
G0 X106.866 Y86.879 F7200
G1 X109.181 Y84.563 E54.8938 F3600
G0 X109.143 Y85.167 F7200
G1 X107.398 Y86.912 E54.9759 F3600
G0 X107.929 Y86.946 F7200
G1 X109.104 Y85.771 E55.0311 F3600
G0 X109.066 Y86.375 F7200
G1 X108.461 Y86.980 E55.0596 F3600
G0 X108.574 Y87.348 F7200
G0 X109.362 Y87.398
G0 X110.537 Y68.893
G0 X118.327 Y69.388
G0 X118.271 Y70.233
G0 X115.704 Y110.683
G0 X115.704 Y110.683
G0 X124.485 Y139.421
G0 X124.481 Y139.408
G1 X125.081 Y138.809 E55.0878 F3600
G0 X125.119 Y138.205 F7200
G1 X123.949 Y139.374 E55.1428 F3600
G0 X123.417 Y139.341 F7200
G1 X125.157 Y137.601 E55.2246 F3600
G0 X125.196 Y136.997 F7200
G1 X122.885 Y139.307 E55.3333 F3600
G0 X122.353 Y139.273 F7200
G1 X125.234 Y136.393 E55.4688 F3600
G0 X125.272 Y135.789 F7200
G1 X121.822 Y139.239 E55.6311 F3600
G0 X121.290 Y139.205 F7200
G1 X125.311 Y135.185 E55.8202 F3600
G0 X125.349 Y134.581 F7200
G1 X120.758 Y139.172 E56.0362 F3600
G0 X120.226 Y139.138 F7200
G1 X125.387 Y133.977 E56.2790 F3600
G0 X125.426 Y133.373 F7200
G1 X119.694 Y139.104 E56.5486 F3600
G0 X119.162 Y139.070 F7200
G1 X125.464 Y132.768 E56.8450 F3600
G0 X125.502 Y132.164 F7200
G1 X118.630 Y139.037 E57.1682 F3600
G0 X118.098 Y139.003 F7200
G1 X125.541 Y131.560 E57.5183 F3600
G0 X125.579 Y130.956 F7200
G1 X117.566 Y138.969 E57.8952 F3600
G0 X117.034 Y138.935 F7200
G1 X125.617 Y130.352 E58.2989 F3600
G0 X125.656 Y129.748 F7200
G1 X116.502 Y138.902 E58.7294 F3600
G0 X115.970 Y138.868 F7200
G1 X125.694 Y129.144 E59.1868 F3600
G0 X125.732 Y128.540 F7200
G1 X115.439 Y138.834 E59.6710 F3600
G0 X114.907 Y138.800 F7200
G1 X125.771 Y127.936 E60.1820 F3600
G0 X125.809 Y127.332 F7200
G1 X114.375 Y138.766 E60.7198 F3600
G0 X114.315 Y138.261 F7200
G1 X125.847 Y126.728 E61.2622 F3600
G0 X125.886 Y126.124 F7200
G1 X114.353 Y137.657 E61.8047 F3600
G0 X114.391 Y137.053 F7200
G1 X125.924 Y125.520 E62.3471 F3600
G0 X125.962 Y124.916 F7200
G1 X114.430 Y136.449 E62.8896 F3600
G0 X114.468 Y135.845 F7200
G1 X126.000 Y124.312 E63.4321 F3600
G0 X126.039 Y123.708 F7200
G1 X114.506 Y135.241 E63.9745 F3600
G0 X114.545 Y134.637 F7200
G1 X126.077 Y123.104 E64.5170 F3600
G0 X126.115 Y122.500 F7200
G1 X114.583 Y134.033 E65.0594 F3600
G0 X114.621 Y133.429 F7200
G1 X126.154 Y121.896 E65.6019 F3600
G0 X126.192 Y121.292 F7200
G1 X114.660 Y132.825 E66.1443 F3600
G0 X114.698 Y132.221 F7200
G1 X126.230 Y120.688 E66.6868 F3600
G0 X126.269 Y120.084 F7200
G1 X114.736 Y131.617 E67.2292 F3600
G0 X114.775 Y131.013 F7200
G1 X126.307 Y119.480 E67.7717 F3600
G0 X126.345 Y118.876 F7200
G1 X114.813 Y130.409 E68.3141 F3600
G0 X114.851 Y129.805 F7200
G1 X126.384 Y118.272 E68.8566 F3600
G0 X126.422 Y117.668 F7200
G1 X114.890 Y129.201 E69.3990 F3600
G0 X114.928 Y128.597 F7200
G1 X126.460 Y117.064 E69.9415 F3600
G0 X126.499 Y116.460 F7200
G1 X114.966 Y127.993 E70.4839 F3600
G0 X115.005 Y127.389 F7200
G1 X126.537 Y115.856 E71.0264 F3600
G0 X126.575 Y115.252 F7200
G1 X115.043 Y126.785 E71.5688 F3600
G0 X115.081 Y126.181 F7200
G1 X126.614 Y114.648 E72.1113 F3600
G0 X126.652 Y114.044 F7200
G1 X115.120 Y125.577 E72.6537 F3600
G0 X115.158 Y124.972 F7200
G1 X126.690 Y113.440 E73.1962 F3600
G0 X126.729 Y112.836 F7200
G1 X115.196 Y124.368 E73.7386 F3600
G0 X115.235 Y123.764 F7200
G1 X126.767 Y112.232 E74.2811 F3600
G0 X126.805 Y111.628 F7200
G1 X115.273 Y123.160 E74.8235 F3600
G0 X115.311 Y122.556 F7200
G1 X126.844 Y111.024 E75.3660 F3600
G0 X126.882 Y110.420 F7200
G1 X115.350 Y121.952 E75.9084 F3600
G0 X115.388 Y121.348 F7200
G1 X126.920 Y109.816 E76.4509 F3600
G0 X126.959 Y109.212 F7200
G1 X115.426 Y120.744 E76.9933 F3600
G0 X115.465 Y120.140 F7200
G1 X126.997 Y108.608 E77.5358 F3600
G0 X126.655 Y108.384 F7200
G1 X115.503 Y119.536 E78.0603 F3600
G0 X115.541 Y118.932 F7200
G1 X126.123 Y108.351 E78.5580 F3600
G0 X125.591 Y108.317 F7200
G1 X115.580 Y118.328 E79.0289 F3600
G0 X115.618 Y117.724 F7200
G1 X125.059 Y108.283 E79.4730 F3600
G0 X124.527 Y108.249 F7200
G1 X115.656 Y117.120 E79.8903 F3600
G0 X115.695 Y116.516 F7200
G1 X123.995 Y108.216 E80.2807 F3600
G0 X123.463 Y108.182 F7200
G1 X115.733 Y115.912 E80.6443 F3600
G0 X115.771 Y115.308 F7200
G1 X122.931 Y108.148 E80.9811 F3600
G0 X122.400 Y108.114 F7200
G1 X115.810 Y114.704 E81.2911 F3600
G0 X115.848 Y114.100 F7200
G1 X121.868 Y108.080 E81.5743 F3600
G0 X121.370 Y108.012 F7200
G1 X115.886 Y113.496 E81.8322 F3600
G0 X115.925 Y112.892 F7200
G1 X120.947 Y107.869 E82.0685 F3600
G0 X120.524 Y107.727 F7200
G1 X115.963 Y112.288 E82.2830 F3600
G0 X116.001 Y111.684 F7200
G1 X120.101 Y107.584 E82.4759 F3600
G0 X119.759 Y107.360 F7200
G1 X116.040 Y111.080 E82.6509 F3600
G0 X116.078 Y110.476 F7200
G1 X119.495 Y107.059 E82.8116 F3600
G0 X119.230 Y106.759 F7200
G1 X116.116 Y109.872 E82.9580 F3600
G0 X116.154 Y109.268 F7200
G1 X118.965 Y106.458 E83.0902 F3600
G0 X118.700 Y106.157 F7200
G1 X116.193 Y108.664 E83.2082 F3600
G0 X116.231 Y108.060 F7200
G1 X118.597 Y105.694 E83.3194 F3600
G0 X118.502 Y105.223 F7200
G1 X116.269 Y107.456 E83.4244 F3600
G0 X116.308 Y106.852 F7200
G1 X118.407 Y104.752 E83.5232 F3600
G0 X118.368 Y104.226 F7200
G1 X116.346 Y106.248 E83.6183 F3600
G0 X116.384 Y105.644 F7200
G1 X118.406 Y103.622 E83.7134 F3600
G0 X118.445 Y103.018 F7200
G1 X116.423 Y105.040 E83.8085 F3600
G0 X116.461 Y104.436 F7200
G1 X118.483 Y102.414 E83.9036 F3600
G0 X118.521 Y101.810 F7200
G1 X116.499 Y103.832 E83.9987 F3600
G0 X116.538 Y103.228 F7200
G1 X118.560 Y101.206 E84.0938 F3600
G0 X118.598 Y100.602 F7200
G1 X116.576 Y102.624 E84.1889 F3600
G0 X116.614 Y102.020 F7200
G1 X118.636 Y99.998 E84.2840 F3600
G0 X118.675 Y99.394 F7200
G1 X116.653 Y101.416 E84.3791 F3600
G0 X116.691 Y100.812 F7200
G1 X118.713 Y98.790 E84.4742 F3600
G0 X118.751 Y98.186 F7200
G1 X116.729 Y100.208 E84.5693 F3600
G0 X116.768 Y99.604 F7200
G1 X118.790 Y97.582 E84.6644 F3600
G0 X118.828 Y96.978 F7200
G1 X116.806 Y99.000 E84.7595 F3600
G0 X116.844 Y98.396 F7200
G1 X118.866 Y96.374 E84.8546 F3600
G0 X118.905 Y95.770 F7200
G1 X116.883 Y97.792 E84.9497 F3600
G0 X116.921 Y97.188 F7200
G1 X118.943 Y95.166 E85.0448 F3600
G0 X118.981 Y94.562 F7200
G1 X116.959 Y96.584 E85.1400 F3600
G0 X116.998 Y95.980 F7200
G1 X119.020 Y93.958 E85.2351 F3600
G0 X119.058 Y93.354 F7200
G1 X117.036 Y95.376 E85.3302 F3600
G0 X117.074 Y94.772 F7200
G1 X119.097 Y92.750 E85.4253 F3600
G0 X119.135 Y92.146 F7200
G1 X117.113 Y94.168 E85.5204 F3600
G0 X117.151 Y93.564 F7200
G1 X119.173 Y91.542 E85.6155 F3600
G0 X119.212 Y90.937 F7200
G1 X117.189 Y92.960 E85.7107 F3600
G0 X117.228 Y92.356 F7200
G1 X119.250 Y90.333 E85.8058 F3600
G0 X119.288 Y89.729 F7200
G1 X117.266 Y91.752 E85.9009 F3600
G0 X117.304 Y91.148 F7200
G1 X119.327 Y89.125 E85.9960 F3600
G0 X119.365 Y88.521 F7200
G1 X117.343 Y90.544 E86.0912 F3600
G0 X117.381 Y89.940 F7200
G1 X119.403 Y87.917 E86.1863 F3600
G0 X119.442 Y87.313 F7200
G1 X117.419 Y89.336 E86.2814 F3600
G0 X117.458 Y88.732 F7200
G1 X119.480 Y86.709 E86.3765 F3600
G0 X119.518 Y86.105 F7200
G1 X117.496 Y88.128 E86.4717 F3600
G0 X117.534 Y87.524 F7200
G1 X119.557 Y85.501 E86.5668 F3600
G0 X119.595 Y84.897 F7200
G1 X117.573 Y86.919 E86.6619 F3600
G0 X117.611 Y86.315 F7200
G1 X119.634 Y84.293 E86.7570 F3600
G0 X119.672 Y83.689 F7200
G1 X117.649 Y85.711 E86.8522 F3600
G0 X117.688 Y85.107 F7200
G1 X119.710 Y83.085 E86.9473 F3600
G0 X119.749 Y82.481 F7200
G1 X117.726 Y84.503 E87.0424 F3600
G0 X117.764 Y83.899 F7200
G1 X119.787 Y81.877 E87.1376 F3600
G0 X119.825 Y81.273 F7200
G1 X117.803 Y83.295 E87.2327 F3600
G0 X117.841 Y82.691 F7200
G1 X119.864 Y80.669 E87.3279 F3600
G0 X119.902 Y80.065 F7200
G1 X117.879 Y82.087 E87.4230 F3600
G0 X117.918 Y81.483 F7200
G1 X119.940 Y79.461 E87.5181 F3600
G0 X119.979 Y78.857 F7200
G1 X117.956 Y80.879 E87.6133 F3600
G0 X117.994 Y80.275 F7200
G1 X120.017 Y78.253 E87.7084 F3600
G0 X120.055 Y77.649 F7200
G1 X118.033 Y79.671 E87.8035 F3600
G0 X118.071 Y79.067 F7200
G1 X120.094 Y77.045 E87.8987 F3600
G0 X120.132 Y76.440 F7200
G1 X118.109 Y78.463 E87.9938 F3600
G0 X118.148 Y77.859 F7200
G1 X120.170 Y75.836 E88.0890 F3600
G0 X120.209 Y75.232 F7200
G1 X118.186 Y77.255 E88.1841 F3600
G0 X118.224 Y76.651 F7200
G1 X120.247 Y74.628 E88.2793 F3600
G0 X120.286 Y74.024 F7200
G1 X118.263 Y76.047 E88.3744 F3600
G0 X118.301 Y75.443 F7200
G1 X120.324 Y73.420 E88.4696 F3600
G0 X120.362 Y72.816 F7200
G1 X118.339 Y74.839 E88.5647 F3600
G0 X118.378 Y74.235 F7200
G1 X120.401 Y72.212 E88.6599 F3600
G0 X120.439 Y71.608 F7200
G1 X118.416 Y73.631 E88.7550 F3600
G0 X118.454 Y73.027 F7200
G1 X120.477 Y71.004 E88.8502 F3600
G0 X120.516 Y70.400 F7200
G1 X118.493 Y72.423 E88.9453 F3600
G0 X118.531 Y71.819 F7200
G1 X120.554 Y69.796 E89.0405 F3600
G0 X120.592 Y69.192 F7200
G1 X118.569 Y71.215 E89.1356 F3600
G0 X118.608 Y70.611 F7200
G1 X120.631 Y68.588 E89.2308 F3600
G0 X120.669 Y67.984 F7200
G1 X118.647 Y70.006 E89.3259 F3600
G0 X118.687 Y69.400 F7200
G1 X120.707 Y67.380 E89.4209 F3600
G0 X120.746 Y66.776 F7200
G1 X118.485 Y69.037 E89.5273 F3600
G0 X117.953 Y69.003 F7200
G1 X120.507 Y66.449 E89.6474 F3600
G0 X120.242 Y66.149 F7200
G1 X117.421 Y68.969 E89.7801 F3600
G0 X116.889 Y68.936 F7200
G1 X119.977 Y65.848 E89.9253 F3600
G0 X119.712 Y65.547 F7200
G1 X116.357 Y68.902 E90.0831 F3600
G0 X115.825 Y68.868 F7200
G1 X119.447 Y65.246 E90.2535 F3600
G0 X119.182 Y64.945 F7200
G1 X115.293 Y68.834 E90.4364 F3600
G0 X114.761 Y68.800 F7200
G1 X118.915 Y64.647 E90.6318 F3600
G0 X118.402 Y64.594 F7200
G1 X114.230 Y68.767 E90.8280 F3600
G0 X113.698 Y68.733 F7200
G1 X117.870 Y64.561 E91.0243 F3600
G0 X117.338 Y64.527 F7200
G1 X113.166 Y68.699 E91.2205 F3600
G0 X112.634 Y68.665 F7200
G1 X116.806 Y64.493 E91.4168 F3600
G0 X116.274 Y64.459 F7200
G1 X112.102 Y68.632 E91.6130 F3600
; ------------------------------------
; Layer #4
; ------------------------------------
M106 S255 ;set fan speed
G21 ; mm
G90 ; abs
G92 E0 ;reset extr
;segType:Infill
G0 F4800 E-1.0000
G0 F1200 Z1.000
G0 X104.125 Y63.688 F7200
G0 F4800 E0.0000
G1 X110.125 Y69.688 E0.3387 F5400
;segType:Loop
G0 X110.442 Y70.390 F7200
G1 X109.362 Y87.398 E0.9055 F3600
G1 X97.886 Y86.669 E1.2880
G1 X98.625 Y75.022 E1.6761
G1 X97.929 Y71.564 E1.7935
G1 X95.545 Y68.856 E1.9135
G1 X92.204 Y67.730 E2.0307
G1 X67.628 Y66.169 E2.8498
G1 X67.954 Y61.030 E3.0211
G1 X118.892 Y64.265 E4.7187
G1 X119.085 Y64.290 E4.7252
G1 X121.118 Y66.598 E4.8275
G1 X118.714 Y104.452 E6.0890
G1 X119.021 Y105.976 E6.1407
G1 X120.102 Y107.204 E6.1952
G1 X121.576 Y107.701 E6.2469
G1 X127.392 Y108.070 E6.4407
G1 X125.377 Y139.826 E7.4990
G1 X113.901 Y139.097 E7.8815
G1 X118.327 Y69.388 E10.2047
G1 X110.537 Y68.893 E10.4643
G1 X110.455 Y70.190 E10.5076
;segType:Perimeter
G0 X110.958 Y68.579 F7200
G1 X110.907 Y69.377 E10.5342 F2160
G1 X109.736 Y87.822 E11.1489
G1 X97.461 Y87.043 E11.5580
G1 X98.223 Y75.049 E11.9577
G1 X97.558 Y71.748 E12.0697
G1 X95.316 Y69.201 E12.1825
G1 X92.126 Y68.126 E12.2945
G1 X67.203 Y66.543 E13.1251
G1 X67.580 Y60.606 E13.3230
G1 X118.931 Y63.866 E15.0344
G1 X119.286 Y63.913 E15.0463
G1 X121.528 Y66.458 E15.1591
G1 X119.117 Y104.425 E16.4244
G1 X119.392 Y105.792 E16.4708
G1 X120.332 Y106.860 E16.5181
G1 X121.653 Y107.305 E16.5645
G1 X127.817 Y107.697 E16.7699
G1 X125.751 Y140.250 E17.8548
G1 X113.476 Y139.471 E18.2639
G1 X117.902 Y69.762 E20.5871
G1 X110.971 Y69.321 E20.8181
;segType:Infill
G0 X112.890 Y68.681 F7200
G1 X108.152 Y63.944 E21.0855 F5400
G0 X112.179 Y64.199 F7200
G1 X116.916 Y68.937 E21.3529 F5400
G0 X116.206 Y64.455 F7200
G1 X120.612 Y68.862 E21.6017 F5400
G0 X118.609 Y70.630 F7200
G1 X120.387 Y72.408 E21.7020 F5400
G0 X118.384 Y74.176 F7200
G1 X120.162 Y75.954 E21.8024 F5400
G0 X118.159 Y77.722 F7200
G1 X119.937 Y79.500 E21.9028 F5400
G0 X119.712 Y83.047 F7200
G1 X117.934 Y81.268 E22.0032 F5400
G0 X117.709 Y84.814 F7200
G1 X119.487 Y86.593 E22.1036 F5400
G0 X117.483 Y88.360 F7200
G1 X119.262 Y90.139 E22.2040 F5400
G0 X117.258 Y91.906 F7200
G1 X119.037 Y93.685 E22.3044 F5400
G0 X116.808 Y98.998 F7200
G1 X118.587 Y100.777 E22.4047 F5400
G0 X118.361 Y104.323 F7200
G1 X116.583 Y102.545 E22.5051 F5400
G0 X116.132 Y109.637 F7200
G1 X126.287 Y119.791 E23.0783 F5400
G0 X114.782 Y130.913 F7200
G1 X123.183 Y139.314 E23.5525 F5400
G0 X119.138 Y139.041 F7200
G1 X114.556 Y134.459 E23.8112 F5400
G0 X114.331 Y138.005 F7200
G1 X115.094 Y138.768 E23.8542 F5400
G0 X125.162 Y137.522 F7200
G1 X115.007 Y127.367 E24.4274 F5400
G0 X115.232 Y123.821 F7200
G1 X125.387 Y133.976 E25.0006 F5400
G0 X125.612 Y130.430 F7200
G1 X115.457 Y120.275 E25.5738 F5400
G0 X115.682 Y116.729 F7200
G1 X125.837 Y126.884 E26.1470 F5400
G0 X126.062 Y123.338 F7200
G1 X115.907 Y113.183 E26.7202 F5400
G0 X122.140 Y108.101 F7200
G1 X126.737 Y112.699 E26.9797 F5400
G0 X126.195 Y108.386 F7200
G1 X126.962 Y109.153 E27.0230 F5400
G0 X126.512 Y116.245 F7200
G1 X116.358 Y106.091 E27.5962 F5400
G0 X118.812 Y97.231 F7200
G1 X117.033 Y95.452 E27.6966 F5400
G0 X116.693 Y95.113 F7200
G0 X118.327 Y69.388
G0 X110.537 Y68.893
G0 X109.362 Y87.398
G0 X108.953 Y87.372
G0 X108.953 Y87.372
G0 X108.558 Y86.977
G0 X108.567 Y86.986
G1 X98.844 Y77.263 E28.2454 F5400
G0 X98.619 Y80.809 F7200
G1 X104.540 Y86.731 E28.5796 F5400
G0 X100.513 Y86.475 F7200
G1 X98.394 Y84.356 E28.6993 F5400
G0 X109.225 Y83.873 F7200
G1 X98.645 Y73.293 E29.2964 F5400
G0 X98.240 Y73.107 F7200
G0 X97.929 Y71.564
G0 X95.545 Y68.856
G0 X92.204 Y67.730
G0 X85.614 Y67.311
G0 X85.614 Y67.311
G0 X84.690 Y66.887
G0 X84.702 Y66.893
G1 X79.963 Y62.154 E29.5639 F5400
G0 X76.648 Y66.381 F7200
G1 X71.909 Y61.643 E29.8314 F5400
G0 X68.594 Y65.870 F7200
G1 X68.043 Y65.318 E29.8625 F5400
G0 X68.268 Y61.772 F7200
G1 X72.621 Y66.126 E30.1082 F5400
G0 X75.936 Y61.898 F7200
G1 X80.675 Y66.637 E30.3757 F5400
G0 X83.990 Y62.410 F7200
G1 X88.729 Y67.148 E30.6432 F5400
G0 X92.954 Y67.602 F7200
G1 X88.017 Y62.665 E30.9219 F5400
G0 X92.044 Y62.921 F7200
G1 X109.450 Y80.327 E31.9043 F5400
G0 X109.675 Y76.781 F7200
G1 X96.071 Y63.177 E32.6722 F5400
G0 X100.098 Y63.432 F7200
G1 X109.900 Y73.235 E33.2255 F5400
G0 X110.283 Y72.887 F7200
G0 X110.537 Y68.893
G0 X114.418 Y69.140
G0 X114.418 Y69.140
G0 X119.109 Y64.888
;segType:HShell
G0 X119.099 Y64.897
G1 X119.440 Y65.239 E33.2415 F3600
; ------------------------------------
; Layer #5
; ------------------------------------
M106 S255 ;set fan speed
G21 ; mm
G90 ; abs
G92 E0 ;reset extr
;segType:Infill
G0 F4800 E-1.0000
G0 F1200 Z1.200
G0 X116.889 Y68.935 F7200
G0 F4800 E0.0000
G1 X119.977 Y65.848 E0.1743 F5400
G0 X117.515 Y64.538 F7200
G1 X113.343 Y68.710 E0.4097 F5400
;segType:Perimeter
G0 X110.958 Y68.579 F7200
G1 X110.907 Y69.377 E0.4363 F2160
G1 X109.736 Y87.822 E1.0511
G1 X97.461 Y87.043 E1.4601
G1 X98.223 Y75.049 E1.8599
G1 X97.559 Y71.748 E1.9719
G1 X95.316 Y69.201 E2.0847
G1 X92.126 Y68.126 E2.1967
G1 X67.203 Y66.543 E3.0273
G1 X67.580 Y60.606 E3.2252
G1 X119.264 Y63.887 E4.9476
G1 X121.528 Y66.458 E5.0616
G1 X119.117 Y104.425 E6.3269
G1 X119.392 Y105.792 E6.3733
G1 X120.332 Y106.860 E6.4206
G1 X121.654 Y107.305 E6.4670
G1 X127.818 Y107.697 E6.6724
G1 X125.751 Y140.250 E7.7573
G1 X113.476 Y139.471 E8.1664
G1 X117.902 Y69.762 E10.4896
G1 X110.971 Y69.321 E10.7206
G0 X110.971 Y69.321 F7200
G0 X110.911 Y69.318
G0 X110.902 Y69.461
G0 X110.902 Y69.461
G0 X110.436 Y70.402
;segType:Loop
G0 X110.442 Y70.390
G1 X109.362 Y87.398 E11.2875 F3600
G1 X97.886 Y86.669 E11.6699
G1 X98.625 Y75.022 E12.0581
G1 X97.930 Y71.564 E12.1754
G1 X95.545 Y68.856 E12.2954
G1 X92.204 Y67.730 E12.4127
G1 X67.628 Y66.169 E13.2318
G1 X67.954 Y61.030 E13.4030
G1 X119.073 Y64.276 E15.1067
G1 X121.118 Y66.598 E15.2096
G1 X118.714 Y104.452 E16.4711
G1 X119.021 Y105.976 E16.5228
G1 X120.102 Y107.204 E16.5773
G1 X121.576 Y107.701 E16.6290
G1 X127.393 Y108.070 E16.8229
G1 X125.377 Y139.826 E17.8812
G1 X113.901 Y139.097 E18.2636
G1 X118.327 Y69.388 E20.5869
G1 X110.537 Y68.893 E20.8465
G1 X110.455 Y70.190 E20.8897
G0 X110.455 Y70.190 F7200
G0 X110.537 Y68.893
G0 X118.327 Y69.388
G0 X118.226 Y70.975
G0 X118.226 Y70.975
G0 X118.598 Y71.012
;segType:Infill
G0 X118.585 Y71.011
G1 X120.604 Y68.992 E21.0037 F5400
G0 X120.348 Y73.019 F7200
G1 X118.329 Y75.038 E21.1177 F5400
G0 X120.093 Y77.045 F7200
G1 X118.074 Y79.065 E21.2316 F5400
G0 X119.837 Y81.072 F7200
G1 X117.818 Y83.092 E21.3456 F5400
G0 X119.582 Y85.099 F7200
G1 X117.562 Y87.119 E21.4596 F5400
G0 X119.326 Y89.126 F7200
G1 X117.307 Y91.146 E21.5736 F5400
G0 X119.071 Y93.153 F7200
G1 X117.051 Y95.172 E21.6876 F5400
G0 X118.815 Y97.179 F7200
G1 X116.795 Y99.199 E21.8017 F5400
G0 X118.559 Y101.206 F7200
G1 X116.539 Y103.226 E21.9157 F5400
G0 X118.470 Y105.067 F7200
G1 X116.284 Y107.253 E22.0391 F5400
G0 X119.848 Y107.460 F7200
G1 X116.028 Y111.280 E22.2547 F5400
G0 X115.772 Y115.307 F7200
G1 X122.931 Y108.148 E22.6588 F5400
G0 X126.793 Y111.829 F7200
G1 X115.261 Y123.361 E23.3096 F5400
G0 X115.005 Y127.388 F7200
G1 X126.537 Y115.856 E23.9606 F5400
G0 X126.282 Y119.883 F7200
G1 X114.750 Y131.415 E24.6115 F5400
G0 X114.907 Y138.800 F7200
G1 X125.771 Y127.936 E25.2247 F5400
G0 X125.515 Y131.963 F7200
G1 X118.453 Y139.025 E25.6233 F5400
G0 X121.999 Y139.250 F7200
G1 X125.259 Y135.990 E25.8073 F5400
G0 X114.494 Y135.442 F7200
G1 X126.026 Y123.910 E26.4582 F5400
G0 X115.517 Y119.334 F7200
G1 X126.477 Y108.373 E27.0769 F5400
G0 X126.122 Y107.990 F7200
G0 X121.576 Y107.701
G0 X120.102 Y107.204
G0 X119.021 Y105.976
G0 X118.714 Y104.452
G0 X118.979 Y100.292
G0 X118.979 Y100.292
G0 X116.532 Y97.655
G0 X116.532 Y97.655
G0 X118.327 Y69.388
G0 X110.537 Y68.893
G0 X109.362 Y87.398
G0 X106.867 Y87.240
G0 X106.867 Y87.240
G0 X106.502 Y86.846
G0 X106.511 Y86.856
G1 X109.206 Y84.161 E27.2290 F5400
G0 X109.462 Y80.134 F7200
G1 X102.965 Y86.631 E27.5958 F5400
G0 X99.419 Y86.406 F7200
G1 X109.718 Y76.107 E28.1771 F5400
G0 X109.973 Y72.080 F7200
G1 X98.441 Y83.612 E28.8280 F5400
G0 X98.697 Y79.586 F7200
G1 X113.969 Y64.313 E29.6901 F5400
G0 X110.423 Y64.088 F7200
G1 X98.952 Y75.559 E30.3375 F5400
G0 X98.444 Y72.295 F7200
G1 X106.877 Y63.863 E30.8135 F5400
G0 X103.331 Y63.638 F7200
G1 X97.002 Y69.966 E31.1707 F5400
G0 X94.929 Y68.268 F7200
G1 X99.785 Y63.412 E31.4448 F5400
G0 X92.693 Y62.962 F7200
G1 X88.520 Y67.135 E31.6803 F5400
G0 X78.508 Y62.061 F7200
G1 X74.335 Y66.234 E31.9159 F5400
G0 X71.416 Y61.611 F7200
G1 X68.065 Y64.962 E32.1050 F5400
G0 X70.789 Y66.009 F7200
G1 X74.962 Y61.836 E32.3405 F5400
G0 X77.881 Y66.460 F7200
G1 X82.054 Y62.287 E32.5761 F5400
G0 X85.600 Y62.512 F7200
G1 X81.428 Y66.685 E32.8116 F5400
G0 X84.974 Y66.910 F7200
G1 X89.147 Y62.737 E33.0471 F5400
G0 X92.066 Y67.360 F7200
G1 X96.239 Y63.187 E33.2827 F5400
; ------------------------------------
; Layer #6
; ------------------------------------
M106 S255 ;set fan speed
G21 ; mm
G90 ; abs
G92 E0 ;reset extr
;segType:Infill
G0 F4800 E-1.0000
G0 F1200 Z1.400
G0 X104.125 Y63.688 F7200
G0 F4800 E0.0000
G1 X110.126 Y69.689 E0.3387 F5400
;segType:Loop
G0 X110.442 Y70.390 F7200
G1 X109.362 Y87.398 E0.9055 F3600
G1 X97.886 Y86.669 E1.2880
G1 X98.625 Y75.022 E1.6762
G1 X97.930 Y71.564 E1.7935
G1 X95.545 Y68.856 E1.9135
G1 X92.205 Y67.730 E2.0307
G1 X67.628 Y66.169 E2.8498
G1 X67.954 Y61.030 E3.0211
G1 X119.073 Y64.276 E4.7247
G1 X121.118 Y66.598 E4.8276
G1 X118.714 Y104.452 E6.0892
G1 X119.021 Y105.976 E6.1409
G1 X120.102 Y107.204 E6.1953
G1 X121.576 Y107.701 E6.2470
G1 X127.393 Y108.070 E6.4409
G1 X125.377 Y139.826 E7.4992
G1 X113.901 Y139.097 E7.8817
G1 X118.327 Y69.387 E10.2049
G1 X110.537 Y68.893 E10.4645
G1 X110.455 Y70.190 E10.5078
;segType:Perimeter
G0 X110.958 Y68.579 F7200
G1 X110.907 Y69.377 E10.5344 F2160
G1 X109.736 Y87.822 E11.1491
G1 X97.461 Y87.043 E11.5582
G1 X98.223 Y75.049 E11.9579
G1 X97.559 Y71.748 E12.0699
G1 X95.316 Y69.201 E12.1828
G1 X92.127 Y68.126 E12.2947
G1 X67.203 Y66.543 E13.1253
G1 X67.580 Y60.606 E13.3232
G1 X119.264 Y63.887 E15.0457
G1 X121.528 Y66.458 E15.1596
G1 X119.117 Y104.425 E16.4249
G1 X119.392 Y105.792 E16.4713
G1 X120.332 Y106.860 E16.5186
G1 X121.654 Y107.305 E16.5650
G1 X127.818 Y107.697 E16.7704
G1 X125.751 Y140.250 E17.8554
G1 X113.476 Y139.471 E18.2644
G1 X117.902 Y69.761 E20.5877
G1 X110.971 Y69.321 E20.8187
G0 X110.172 Y69.271 F7200
;segType:Infill
G0 X109.900 Y73.235
G1 X100.098 Y63.432 E21.3720 F5400
G0 X96.071 Y63.177 F7200
G1 X109.675 Y76.781 E22.1399 F5400
G0 X109.450 Y80.327 F7200
G1 X92.044 Y62.921 E23.1223 F5400
G0 X88.729 Y67.148 F7200
G1 X83.990 Y62.410 E23.3898 F5400
G0 X80.675 Y66.637 F7200
G1 X75.936 Y61.898 E23.6573 F5400
G0 X71.909 Y61.642 F7200
G1 X76.648 Y66.381 E23.9247 F5400
G0 X72.621 Y66.126 F7200
G1 X68.268 Y61.772 E24.1705 F5400
G0 X68.043 Y65.318 F7200
G1 X68.594 Y65.870 E24.2016 F5400
G0 X79.963 Y62.154 F7200
G1 X84.702 Y66.893 E24.4691 F5400
G0 X88.017 Y62.665 F7200
G1 X92.954 Y67.602 E24.7478 F5400
G0 X93.528 Y68.176 F7200
G0 X95.545 Y68.856
G0 X97.930 Y71.564
G0 X98.185 Y72.833
G0 X98.185 Y72.833
G0 X98.654 Y73.302
G0 X98.645 Y73.293
G1 X109.225 Y83.873 E25.3449 F5400
G0 X104.540 Y86.731 F7200
G1 X98.619 Y80.809 E25.6791 F5400
G0 X98.394 Y84.356 F7200
G1 X100.513 Y86.475 E25.7988 F5400
G0 X98.844 Y77.263 F7200
G1 X108.567 Y86.986 E26.3476 F5400
G0 X108.759 Y87.360 F7200
G0 X109.362 Y87.398
G0 X110.537 Y68.893
G0 X118.327 Y69.387
G0 X116.261 Y101.921
G0 X116.261 Y101.921
G0 X116.589 Y102.556
G0 X116.583 Y102.545
G1 X118.362 Y104.323 E26.4480 F5400
G0 X116.132 Y109.637 F7200
G1 X126.287 Y119.792 E27.0212 F5400
G0 X126.062 Y123.338 F7200
G1 X115.907 Y113.183 E27.5944 F5400
G0 X115.682 Y116.729 F7200
G1 X125.837 Y126.884 E28.1676 F5400
G0 X114.331 Y138.005 F7200
G1 X115.141 Y138.815 E28.2133 F5400
G0 X119.167 Y139.070 F7200
G1 X114.556 Y134.459 E28.4735 F5400
G0 X114.782 Y130.913 F7200
G1 X123.194 Y139.326 E28.9484 F5400
G0 X125.162 Y137.523 F7200
G1 X115.007 Y127.367 E29.5216 F5400
G0 X115.232 Y123.821 F7200
G1 X125.387 Y133.976 E30.0948 F5400
G0 X125.612 Y130.430 F7200
G1 X115.457 Y120.275 E30.6680 F5400
G0 X122.136 Y108.098 F7200
G1 X126.737 Y112.699 E30.9278 F5400
G0 X126.962 Y109.153 F7200
G1 X126.163 Y108.353 E30.9729 F5400
G0 X126.512 Y116.245 F7200
G1 X116.358 Y106.091 E31.5461 F5400
G0 X118.587 Y100.777 F7200
G1 X116.808 Y98.998 E31.6465 F5400
G0 X118.812 Y97.231 F7200
G1 X117.033 Y95.452 E31.7469 F5400
G0 X119.037 Y93.685 F7200
G1 X117.258 Y91.906 E31.8473 F5400
G0 X119.262 Y90.139 F7200
G1 X117.483 Y88.360 E31.9477 F5400
G0 X119.487 Y86.593 F7200
G1 X117.709 Y84.814 E32.0481 F5400
G0 X119.712 Y83.047 F7200
G1 X117.934 Y81.268 E32.1485 F5400
G0 X119.937 Y79.500 F7200
G1 X118.159 Y77.722 E32.2489 F5400
G0 X120.162 Y75.954 F7200
G1 X118.384 Y74.176 E32.3492 F5400
G0 X120.387 Y72.408 F7200
G1 X118.609 Y70.630 E32.4496 F5400
G0 X120.612 Y68.862 F7200
G1 X116.206 Y64.455 E32.6983 F5400
G0 X112.179 Y64.199 F7200
G1 X116.916 Y68.937 E32.9657 F5400
G0 X112.890 Y68.681 F7200
G1 X108.152 Y63.944 E33.2332 F5400
; ------------------------------------
; Layer #7
; ------------------------------------
M106 S255 ;set fan speed
G21 ; mm
G90 ; abs
G92 E0 ;reset extr
;segType:Infill
G0 F4800 E-1.0000
G0 F1200 Z1.600
G0 X116.889 Y68.935 F7200
G0 F4800 E0.0000
G1 X119.977 Y65.848 E0.1743 F5400
G0 X117.515 Y64.538 F7200
G1 X113.343 Y68.710 E0.4097 F5400
G0 X111.085 Y69.329 F7200
G0 X110.907 Y69.377
G0 X110.907 Y69.377
G0 X110.894 Y69.381
;segType:Perimeter
G0 X110.907 Y69.377
G1 X109.736 Y87.822 E1.0245 F2160
G1 X97.462 Y87.043 E1.4335
G1 X98.223 Y75.049 E1.8332
G1 X97.559 Y71.748 E1.9453
G1 X95.316 Y69.201 E2.0581
G1 X92.127 Y68.126 E2.1700
G1 X67.203 Y66.543 E3.0007
G1 X67.580 Y60.606 E3.1986
G1 X119.264 Y63.887 E4.9210
G1 X121.527 Y66.457 E5.0349
G1 X119.117 Y104.425 E6.3002
G1 X119.392 Y105.792 E6.3466
G1 X120.332 Y106.860 E6.3939
G1 X121.654 Y107.305 E6.4403
G1 X127.818 Y107.697 E6.6458
G1 X125.751 Y140.250 E7.7307
G1 X113.476 Y139.471 E8.1397
G1 X117.902 Y69.761 E10.4630
G1 X110.971 Y69.321 E10.6940
G0 X110.172 Y69.271 F7200
;segType:Loop
G0 X110.442 Y70.390
G1 X109.362 Y87.398 E11.2608 F3600
G1 X97.886 Y86.669 E11.6433
G1 X98.625 Y75.022 E12.0314
G1 X97.930 Y71.564 E12.1488
G1 X95.546 Y68.856 E12.2688
G1 X92.205 Y67.730 E12.3860
G1 X67.628 Y66.169 E13.2051
G1 X67.954 Y61.030 E13.3764
G1 X119.073 Y64.276 E15.0800
G1 X121.117 Y66.597 E15.1829
G1 X118.715 Y104.452 E16.4444
G1 X119.021 Y105.976 E16.4962
G1 X120.102 Y107.204 E16.5506
G1 X121.576 Y107.701 E16.6023
G1 X127.393 Y108.070 E16.7962
G1 X125.377 Y139.826 E17.8545
G1 X113.901 Y139.097 E18.2369
G1 X118.327 Y69.387 E20.5602
G1 X110.537 Y68.893 E20.8198
G1 X110.455 Y70.190 E20.8630
;segType:Infill
G0 X109.974 Y72.080 F7200
G1 X98.441 Y83.612 E21.5140 F5400
G0 X99.419 Y86.406 F7200
G1 X109.718 Y76.107 E22.0953 F5400
G0 X109.462 Y80.134 F7200
G1 X102.965 Y86.631 E22.4620 F5400
G0 X106.511 Y86.856 F7200
G1 X109.207 Y84.160 E22.6142 F5400
G0 X109.539 Y84.611 F7200
G0 X110.537 Y68.893
G0 X118.327 Y69.387
G0 X116.741 Y94.368
G0 X116.741 Y94.368
G0 X118.823 Y97.190
G0 X118.815 Y97.179
G1 X116.795 Y99.199 E22.7282 F5400
G0 X118.560 Y101.206 F7200
G1 X116.539 Y103.226 E22.8422 F5400
G0 X118.471 Y105.066 F7200
G1 X116.284 Y107.253 E22.9657 F5400
G0 X116.028 Y111.280 F7200
G1 X119.848 Y107.460 E23.1813 F5400
G0 X122.931 Y108.148 F7200
G1 X115.772 Y115.307 E23.5853 F5400
G0 X125.771 Y127.936 F7200
G1 X114.907 Y138.800 E24.1985 F5400
G0 X118.453 Y139.025 F7200
G1 X125.515 Y131.963 E24.5971 F5400
G0 X125.259 Y135.990 F7200
G1 X121.999 Y139.250 E24.7812 F5400
G0 X114.494 Y135.442 F7200
G1 X126.026 Y123.910 E25.4321 F5400
G0 X126.282 Y119.883 F7200
G1 X114.750 Y131.415 E26.0830 F5400
G0 X115.005 Y127.388 F7200
G1 X126.537 Y115.856 E26.7339 F5400
G0 X126.793 Y111.829 F7200
G1 X115.261 Y123.361 E27.3848 F5400
G0 X115.517 Y119.334 F7200
G1 X126.478 Y108.373 E28.0035 F5400
G0 X126.208 Y107.995 F7200
G0 X121.576 Y107.701
G0 X120.102 Y107.204
G0 X119.021 Y105.976
G0 X118.715 Y104.452
G0 X119.120 Y98.070
G0 X119.120 Y98.070
G0 X117.043 Y95.162
G0 X117.051 Y95.172
G1 X119.071 Y93.152 E28.1175 F5400
G0 X117.307 Y91.146 F7200
G1 X119.326 Y89.126 E28.2315 F5400
G0 X117.562 Y87.119 F7200
G1 X119.582 Y85.099 E28.3455 F5400
G0 X117.818 Y83.092 F7200
G1 X119.837 Y81.072 E28.4595 F5400
G0 X118.074 Y79.065 F7200
G1 X120.093 Y77.045 E28.5735 F5400
G0 X118.329 Y75.038 F7200
G1 X120.348 Y73.019 E28.6874 F5400
G0 X118.585 Y71.011 F7200
G1 X120.604 Y68.992 E28.8014 F5400
G0 X113.969 Y64.313 F7200
G1 X98.697 Y79.586 E29.6634 F5400
G0 X98.952 Y75.559 F7200
G1 X110.423 Y64.088 E30.3109 F5400
G0 X106.877 Y63.863 F7200
G1 X98.444 Y72.295 E30.7869 F5400
G0 X92.693 Y62.962 F7200
G1 X88.520 Y67.135 E31.0224 F5400
G0 X85.601 Y62.512 F7200
G1 X81.428 Y66.684 E31.2579 F5400
G0 X78.508 Y62.061 F7200
G1 X74.336 Y66.234 E31.4935 F5400
G0 X71.416 Y61.611 F7200
G1 X68.066 Y64.962 E31.6826 F5400
G0 X70.790 Y66.009 F7200
G1 X74.962 Y61.836 E31.9181 F5400
G0 X77.882 Y66.459 F7200
G1 X82.054 Y62.287 E32.1536 F5400
G0 X84.974 Y66.910 F7200
G1 X89.147 Y62.737 E32.3891 F5400
G0 X92.066 Y67.360 F7200
G1 X96.239 Y63.187 E32.6247 F5400
G0 X99.785 Y63.412 F7200
G1 X94.929 Y68.268 E32.8988 F5400
G0 X97.003 Y69.966 F7200
G1 X103.331 Y63.638 E33.2560 F5400
; ------------------------------------
; Layer #8
; ------------------------------------
M106 S255 ;set fan speed
G21 ; mm
G90 ; abs
G92 E0 ;reset extr
;segType:Infill
G0 F4800 E-1.0000
G0 F1200 Z1.800
G0 X104.125 Y63.688 F7200
G0 F4800 E0.0000
G1 X110.126 Y69.689 E0.3387 F5400
;segType:Loop
G0 X110.442 Y70.390 F7200
G1 X109.362 Y87.398 E0.9055 F3600
G1 X97.886 Y86.669 E1.2880
G1 X98.625 Y75.022 E1.6762
G1 X97.930 Y71.564 E1.7935
G1 X95.546 Y68.856 E1.9135
G1 X92.205 Y67.730 E2.0307
G1 X67.628 Y66.169 E2.8498
G1 X67.954 Y61.030 E3.0211
